;FLAVOR:UltiGCode
;TIME:4472
;MATERIAL:9648
;MATERIAL2:0
;NOZZLE_DIAMETER:0.4
;MINX:84.676
;MINY:84.366
;MINZ:0.3
;MAXX:138.324
;MAXY:138.64
;MAXZ:16.8
;Generated with Cura_SteamEngine 5.0.0
M82 ;absolute extrusion mode
G0 F3000 Y50 ;avoid prime blob
G92 E0
G92 E0
G10
;LAYER_COUNT:111
;LAYER:0
M107
G0 F3600 X92.506 Y92.241 Z0.3
G0 X88.248 Y97.8
;TYPE:SKIRT
G11
G1 F1800 X88.588 Y97.227 E0.07995
G1 X89.496 Y95.835 E0.27939
G1 X89.897 Y95.275 E0.36204
G1 X90.923 Y93.97 E0.56125
G1 X91.369 Y93.452 E0.64327
G1 X92.506 Y92.241 E0.8426
G1 X92.981 Y91.776 E0.92237
G1 X94.216 Y90.667 E1.12155
G1 X94.781 Y90.206 E1.20906
G1 X96.159 Y89.184 E1.41493
G1 X96.685 Y88.826 E1.49129
G1 X98.048 Y87.978 E1.68392
G1 X98.674 Y87.627 E1.77004
G1 X100.207 Y86.859 E1.97579
G1 X100.792 Y86.596 E2.05276
G1 X102.285 Y85.996 E2.24585
G1 X102.964 Y85.759 E2.33215
G1 X104.606 Y85.269 E2.53778
G1 X105.234 Y85.109 E2.61554
G1 X106.807 Y84.779 E2.80841
G1 X107.505 Y84.666 E2.89326
G1 X109.21 Y84.467 E3.09925
G1 X109.861 Y84.418 E3.17759
G1 X111.465 Y84.366 E3.37017
G1 X112.178 Y84.376 E3.45574
G1 X113.888 Y84.477 E3.6613
G1 X114.528 Y84.541 E3.73848
G1 X116.121 Y84.768 E3.93157
G1 X116.832 Y84.903 E4.01842
G1 X118.499 Y85.301 E4.22408
G1 X119.111 Y85.474 E4.3004
G1 X120.638 Y85.973 E4.49317
G1 X121.288 Y86.218 E4.57653
G1 X122.814 Y86.872 E4.77576
G1 X123.451 Y87.18 E4.86067
G1 X124.96 Y87.996 E5.06653
G1 X125.51 Y88.323 E5.14331
G1 X126.858 Y89.202 E5.33642
G1 X127.417 Y89.603 E5.41898
G1 X128.719 Y90.626 E5.61767
G1 X129.237 Y91.07 E5.69954
G1 X130.449 Y92.207 E5.89896
G1 X130.941 Y92.713 E5.98366
G1 X132.08 Y93.994 E6.18935
G1 X132.493 Y94.499 E6.26764
G1 X133.456 Y95.784 E6.46033
G1 X133.858 Y96.376 E6.54621
G1 X134.757 Y97.838 E6.75216
G1 X135.069 Y98.395 E6.82877
G1 X135.795 Y99.826 E7.02133
G1 X136.089 Y100.477 E7.10704
G1 X136.723 Y102.074 E7.31323
G1 X136.938 Y102.691 E7.39164
G1 X137.403 Y104.226 E7.58411
G1 X137.577 Y104.913 E7.66915
G1 X137.923 Y106.592 E7.87486
G1 X138.029 Y107.238 E7.95342
G1 X138.22 Y108.832 E8.14607
G1 X138.271 Y109.511 E8.22778
G1 X138.324 Y111.173 E8.42732
G1 X138.316 Y111.86 E8.50976
G1 X138.223 Y113.514 E8.70856
G1 X138.223 Y130.839 E10.78756
G1 X138.183 Y131.628 E10.88236
G1 X138.064 Y132.408 E10.97704
G1 X137.866 Y133.173 E11.07187
G1 X137.592 Y133.913 E11.16656
G1 X137.244 Y134.622 E11.26134
G1 X136.826 Y135.293 E11.3562
G1 X136.343 Y135.917 E11.45089
G1 X135.8 Y136.49 E11.54562
G1 X135.201 Y137.005 E11.64042
G1 X134.553 Y137.456 E11.73516
G1 X133.862 Y137.84 E11.83002
G1 X133.137 Y138.152 E11.92473
G1 X132.384 Y138.389 E12.01946
G1 X131.61 Y138.548 E12.11428
G1 X130.825 Y138.629 E12.20898
G1 X130.424 Y138.639 E12.25712
G1 X124.853 Y138.64 E12.92564
G1 X124.065 Y138.6 E13.02032
G1 X123.284 Y138.481 E13.11512
G1 X122.52 Y138.283 E13.20983
G1 X121.779 Y138.009 E13.30463
G1 X121.07 Y137.662 E13.39936
G1 X120.399 Y137.244 E13.49422
G1 X119.775 Y136.761 E13.58891
G1 X119.202 Y136.218 E13.68364
G1 X118.687 Y135.619 E13.77844
G1 X118.236 Y134.971 E13.87318
G1 X117.852 Y134.281 E13.96794
G1 X117.54 Y133.555 E14.06276
G1 X117.406 Y133.128 E14.11647
G1 X116.495 Y133.475 E14.23345
G1 X115.201 Y133.887 E14.39641
G1 X114.602 Y134.052 E14.47096
G1 X113.325 Y134.349 E14.62829
G1 X112.644 Y134.476 E14.71142
G1 X111.25 Y134.672 E14.88035
G1 X110.595 Y134.736 E14.95932
G1 X109.239 Y134.811 E15.12229
G1 X108.589 Y134.82 E15.2003
G1 X107.234 Y134.782 E15.36296
G1 X106.569 Y134.735 E15.44296
G1 X105.219 Y134.581 E15.60601
G1 X104.615 Y134.488 E15.67935
G1 X103.323 Y134.237 E15.83729
G1 X102.634 Y134.07 E15.92236
G1 X101.289 Y133.679 E16.09044
G1 X100.678 Y133.474 E16.16778
G1 X99.408 Y132.988 E16.33096
G1 X98.798 Y132.724 E16.41072
G1 X97.575 Y132.132 E16.57377
G1 X97.031 Y131.842 E16.64774
G1 X95.899 Y131.179 E16.80517
G1 X95.314 Y130.8 E16.88881
G1 X94.169 Y129.984 E17.05753
G1 X93.676 Y129.602 E17.13238
G1 X92.671 Y128.757 E17.28994
G1 X92.156 Y128.283 E17.37393
G1 X91.166 Y127.286 E17.54253
G1 X90.733 Y126.812 E17.61957
G1 X89.857 Y125.771 E17.78284
G1 X89.471 Y125.273 E17.85845
G1 X88.71 Y124.204 E18.01591
G1 X88.33 Y123.617 E18.09982
G1 X87.622 Y122.406 E18.26816
G1 X87.319 Y121.833 E18.34594
G1 X86.733 Y120.607 E18.509
G1 X86.479 Y120.014 E18.58641
G1 X85.996 Y118.743 E18.74958
G1 X85.785 Y118.108 E18.82987
G1 X85.414 Y116.805 E18.99245
G1 X85.259 Y116.153 E19.07287
G1 X85 Y114.817 E19.23617
G1 X84.907 Y114.213 E19.30951
G1 X84.759 Y112.91 E19.46687
G1 X84.712 Y112.237 E19.54783
G1 X84.676 Y110.88 E19.71073
G1 X84.686 Y110.23 E19.78874
G1 X84.763 Y108.876 E19.95148
G1 X84.828 Y108.219 E20.0307
G1 X85.063 Y106.57 E20.23058
G1 X85.192 Y105.885 E20.31423
G1 X85.572 Y104.269 E20.51344
G1 X85.754 Y103.623 E20.59397
G1 X86.271 Y102.047 E20.79301
G1 X86.512 Y101.407 E20.87507
G1 X87.167 Y99.878 E21.07468
G1 X87.464 Y99.261 E21.15685
G1 X88.248 Y97.8 E21.35582
G10
G0 F3600 X86.74 Y104.543
G11
G1 F1800 X86.894 Y103.997 E21.4239
G1 X87.411 Y102.421 E21.62293
G1 X87.615 Y101.879 E21.69243
G1 X88.27 Y100.35 E21.89203
G1 X88.521 Y99.828 E21.96154
G1 X89.305 Y98.367 E22.16051
G1 X89.593 Y97.882 E22.22819
G1 X90.501 Y96.49 E22.42763
G1 X90.841 Y96.017 E22.49753
G1 X91.867 Y94.712 E22.69674
G1 X92.243 Y94.273 E22.7661
G1 X93.38 Y93.062 E22.96543
G1 X93.782 Y92.669 E23.03289
G1 X95.017 Y91.56 E23.23208
G1 X95.495 Y91.17 E23.30611
G1 X96.873 Y90.148 E23.51198
G1 X97.318 Y89.845 E23.57658
G1 X98.681 Y88.997 E23.76922
G1 X99.212 Y88.7 E23.84223
G1 X100.745 Y87.932 E24.04798
G1 X101.24 Y87.709 E24.11313
G1 X102.733 Y87.109 E24.30622
G1 X103.307 Y86.909 E24.37916
G1 X104.949 Y86.419 E24.58478
G1 X105.481 Y86.284 E24.65065
G1 X107.054 Y85.954 E24.84352
G1 X107.644 Y85.858 E24.91525
G1 X109.349 Y85.659 E25.12124
G1 X109.9 Y85.617 E25.18755
G1 X111.504 Y85.565 E25.38013
G1 X112.107 Y85.573 E25.45249
G1 X113.817 Y85.674 E25.65805
G1 X114.359 Y85.729 E25.72343
G1 X115.952 Y85.956 E25.91652
G1 X116.554 Y86.07 E25.99004
G1 X118.221 Y86.468 E26.1957
G1 X118.738 Y86.614 E26.26017
G1 X120.265 Y87.113 E26.45295
G1 X120.815 Y87.321 E26.52351
G1 X122.341 Y87.975 E26.72274
G1 X122.88 Y88.235 E26.79455
G1 X124.389 Y89.051 E27.00041
G1 X124.855 Y89.329 E27.06552
G1 X126.203 Y90.208 E27.25864
G1 X126.676 Y90.546 E27.3284
G1 X127.978 Y91.569 E27.5271
G1 X128.416 Y91.946 E27.59644
G1 X129.628 Y93.083 E27.79587
G1 X130.044 Y93.51 E27.8674
G1 X131.183 Y94.791 E28.0731
G1 X131.532 Y95.219 E28.13937
G1 X132.495 Y96.504 E28.33207
G1 X132.836 Y97.005 E28.40479
G1 X133.735 Y98.467 E28.61075
G1 X133.999 Y98.938 E28.67554
G1 X134.725 Y100.369 E28.86809
G1 X134.973 Y100.92 E28.9406
G1 X135.607 Y102.517 E29.14679
G1 X135.79 Y103.039 E29.21317
G1 X136.255 Y104.574 E29.40564
G1 X136.402 Y105.155 E29.47755
G1 X136.748 Y106.834 E29.68327
G1 X136.837 Y107.381 E29.74977
G1 X137.028 Y108.975 E29.94242
G1 X137.072 Y109.55 E30.01162
G1 X137.125 Y111.212 E30.21116
G1 X137.118 Y111.793 E30.28089
G1 X137.023 Y113.482 E30.48389
G1 X137.023 Y130.839 E32.56673
G1 X136.983 Y131.564 E32.65386
G1 X136.864 Y132.281 E32.74108
G1 X136.666 Y132.98 E32.82826
G1 X136.393 Y133.653 E32.91541
G1 X136.048 Y134.292 E33.00255
G1 X135.634 Y134.889 E33.08973
G1 X135.158 Y135.437 E33.17683
G1 X134.624 Y135.93 E33.26405
G1 X134.039 Y136.36 E33.35117
G1 X133.41 Y136.724 E33.43838
G1 X132.745 Y137.017 E33.52558
G1 X132.052 Y137.235 E33.61276
G1 X131.34 Y137.375 E33.69983
G1 X130.424 Y137.439 E33.81002
G1 X124.853 Y137.44 E34.47854
G1 X124.128 Y137.4 E34.56568
G1 X123.411 Y137.281 E34.65289
G1 X122.712 Y137.084 E34.74004
G1 X122.039 Y136.811 E34.82719
G1 X121.4 Y136.465 E34.91439
G1 X120.803 Y136.052 E35.0015
G1 X120.255 Y135.575 E35.08869
G1 X119.762 Y135.042 E35.17581
G1 X119.331 Y134.457 E35.26301
G1 X118.967 Y133.828 E35.35021
G1 X118.675 Y133.164 E35.43726
G1 X118.457 Y132.471 E35.52443
G1 X118.316 Y131.758 E35.61165
G1 X118.294 Y131.441 E35.64978
G1 X117.915 Y131.617 E35.69993
G1 X116.661 Y132.138 E35.86288
G1 X116.131 Y132.332 E35.93061
G1 X114.837 Y132.744 E36.09357
G1 X114.33 Y132.883 E36.15665
G1 X113.053 Y133.18 E36.31398
G1 X112.477 Y133.288 E36.38431
G1 X111.083 Y133.484 E36.55323
G1 X110.528 Y133.538 E36.62015
G1 X109.172 Y133.613 E36.78311
G1 X108.623 Y133.62 E36.849
G1 X107.268 Y133.582 E37.01166
G1 X106.705 Y133.542 E37.07939
G1 X105.355 Y133.388 E37.24244
G1 X104.844 Y133.31 E37.30447
G1 X103.552 Y133.059 E37.46241
G1 X102.969 Y132.918 E37.53439
G1 X101.624 Y132.527 E37.70247
G1 X101.107 Y132.353 E37.76793
G1 X99.837 Y131.867 E37.93111
G1 X99.32 Y131.644 E37.99867
G1 X98.097 Y131.052 E38.16172
G1 X97.637 Y130.806 E38.22432
G1 X96.505 Y130.143 E38.38175
G1 X96.011 Y129.823 E38.45238
G1 X94.866 Y129.007 E38.6211
G1 X94.449 Y128.684 E38.68439
G1 X93.444 Y127.839 E38.84196
G1 X93.008 Y127.437 E38.91312
G1 X92.018 Y126.44 E39.08173
G1 X91.651 Y126.04 E39.14687
G1 X90.775 Y124.999 E39.31013
G1 X90.448 Y124.577 E39.3742
G1 X89.687 Y123.508 E39.53166
G1 X89.366 Y123.011 E39.60266
G1 X88.658 Y121.8 E39.77099
G1 X88.401 Y121.315 E39.83686
G1 X87.815 Y120.089 E39.99992
G1 X87.6 Y119.588 E40.06534
G1 X87.117 Y118.317 E40.2285
G1 X86.939 Y117.779 E40.29651
G1 X86.568 Y116.476 E40.45908
G1 X86.437 Y115.925 E40.52704
G1 X86.178 Y114.589 E40.69035
G1 X86.099 Y114.078 E40.7524
G1 X85.951 Y112.775 E40.90976
G1 X85.911 Y112.205 E40.97833
G1 X85.875 Y110.848 E41.14123
G1 X85.884 Y110.298 E41.20724
G1 X85.961 Y108.944 E41.36998
G1 X86.016 Y108.388 E41.43703
G1 X86.251 Y106.739 E41.6369
G1 X86.36 Y106.159 E41.70772
G1 X86.74 Y104.543 E41.90693
G10
G0 F3600 X87.075 Y110.816
G11
G1 F1800 X87.082 Y110.366 E41.96094
G1 X87.159 Y109.012 E42.12368
G1 X87.204 Y108.557 E42.17855
G1 X87.439 Y106.908 E42.37843
G1 X87.528 Y106.434 E42.4363
G1 X87.908 Y104.818 E42.63551
G1 X88.034 Y104.371 E42.69124
G1 X88.551 Y102.795 E42.89028
G1 X88.718 Y102.352 E42.94709
G1 X89.373 Y100.823 E43.1467
G1 X89.579 Y100.396 E43.20359
G1 X90.363 Y98.935 E43.40255
G1 X90.598 Y98.538 E43.45791
G1 X91.506 Y97.146 E43.65735
G1 X91.784 Y96.758 E43.71463
G1 X92.81 Y95.453 E43.91383
G1 X93.118 Y95.095 E43.9705
G1 X94.255 Y93.884 E44.16984
G1 X94.584 Y93.562 E44.22508
G1 X95.819 Y92.453 E44.42426
G1 X96.21 Y92.134 E44.48482
G1 X97.588 Y91.112 E44.69069
G1 X97.952 Y90.864 E44.74354
G1 X99.315 Y90.016 E44.93618
G1 X99.749 Y89.773 E44.99586
G1 X101.282 Y89.005 E45.20162
G1 X101.687 Y88.822 E45.25495
G1 X103.18 Y88.222 E45.44804
G1 X103.65 Y88.058 E45.50777
G1 X105.292 Y87.568 E45.7134
G1 X105.727 Y87.458 E45.76724
G1 X107.3 Y87.128 E45.96011
G1 X107.783 Y87.049 E46.01884
G1 X109.488 Y86.85 E46.22483
G1 X109.939 Y86.817 E46.27909
G1 X111.543 Y86.765 E46.47167
G1 X112.036 Y86.771 E46.53084
G1 X113.746 Y86.872 E46.7364
G1 X114.19 Y86.917 E46.78995
G1 X115.783 Y87.144 E46.98304
G1 X116.275 Y87.238 E47.04315
G1 X117.942 Y87.636 E47.24881
G1 X118.365 Y87.755 E47.30154
G1 X119.892 Y88.254 E47.49432
G1 X120.342 Y88.424 E47.55204
G1 X121.868 Y89.078 E47.75127
G1 X122.31 Y89.291 E47.81015
G1 X123.819 Y90.107 E48.01601
G1 X124.2 Y90.334 E48.06923
G1 X125.548 Y91.213 E48.26234
G1 X125.934 Y91.49 E48.31935
G1 X127.236 Y92.513 E48.51805
G1 X127.595 Y92.821 E48.57481
G1 X128.807 Y93.958 E48.77423
G1 X129.147 Y94.308 E48.83279
G1 X130.286 Y95.589 E49.03848
G1 X130.572 Y95.939 E49.09272
G1 X131.535 Y97.224 E49.28542
G1 X131.814 Y97.633 E49.34483
G1 X132.713 Y99.095 E49.55079
G1 X132.929 Y99.481 E49.60386
G1 X133.655 Y100.912 E49.79642
G1 X133.858 Y101.363 E49.85577
G1 X134.492 Y102.96 E50.06196
G1 X134.641 Y103.386 E50.11612
G1 X135.106 Y104.921 E50.30858
G1 X135.227 Y105.397 E50.36752
G1 X135.573 Y107.076 E50.57323
G1 X135.646 Y107.524 E50.6277
G1 X135.837 Y109.118 E50.82035
G1 X135.872 Y109.588 E50.87691
G1 X135.925 Y111.25 E51.07645
G1 X135.919 Y111.725 E51.13345
G1 X135.823 Y113.426 E51.3379
G1 X135.823 Y130.839 E53.42746
G1 X135.783 Y131.495 E53.50632
G1 X135.664 Y132.141 E53.58515
G1 X135.467 Y132.768 E53.66401
G1 X135.195 Y133.366 E53.74285
G1 X134.853 Y133.927 E53.82169
G1 X134.445 Y134.442 E53.90054
G1 X133.978 Y134.904 E53.97936
G1 X133.458 Y135.305 E54.05816
G1 X132.894 Y135.641 E54.13694
G1 X132.292 Y135.905 E54.21582
G1 X131.663 Y136.095 E54.29467
G1 X131.016 Y136.206 E54.37345
G1 X130.424 Y136.239 E54.4446
G1 X124.853 Y136.24 E55.11312
G1 X124.197 Y136.2 E55.19198
G1 X123.551 Y136.081 E55.27081
G1 X122.924 Y135.884 E55.34967
G1 X122.326 Y135.613 E55.42846
G1 X121.765 Y135.271 E55.5073
G1 X121.25 Y134.863 E55.58615
G1 X120.788 Y134.396 E55.66498
G1 X120.386 Y133.876 E55.74385
G1 X120.051 Y133.311 E55.82267
G1 X119.786 Y132.71 E55.90149
G1 X119.597 Y132.081 E55.9803
G1 X119.485 Y131.434 E56.0591
G1 X119.452 Y130.839 E56.13061
G1 X119.452 Y129.476 E56.29417
G1 X119.072 Y129.693 E56.34668
G1 X117.864 Y130.318 E56.50989
G1 X117.455 Y130.509 E56.56406
G1 X116.201 Y131.03 E56.72701
G1 X115.767 Y131.188 E56.78243
G1 X114.473 Y131.6 E56.9454
G1 X114.058 Y131.715 E56.99707
G1 X112.781 Y132.012 E57.1544
G1 X112.31 Y132.099 E57.21188
G1 X110.916 Y132.295 E57.3808
G1 X110.462 Y132.34 E57.43555
G1 X109.106 Y132.415 E57.59852
G1 X108.657 Y132.421 E57.6524
G1 X107.302 Y132.383 E57.81507
G1 X106.841 Y132.35 E57.87053
G1 X105.491 Y132.196 E58.03358
G1 X105.073 Y132.132 E58.08432
G1 X103.781 Y131.881 E58.24226
G1 X103.304 Y131.765 E58.30117
G1 X101.959 Y131.374 E58.46925
G1 X101.536 Y131.232 E58.5228
G1 X100.266 Y130.746 E58.68598
G1 X99.843 Y130.564 E58.74123
G1 X98.62 Y129.972 E58.90428
G1 X98.244 Y129.771 E58.95545
G1 X97.112 Y129.108 E59.11287
G1 X96.707 Y128.846 E59.17075
G1 X95.562 Y128.03 E59.33947
G1 X95.221 Y127.765 E59.3913
G1 X94.216 Y126.92 E59.54886
G1 X93.859 Y126.592 E59.60704
G1 X92.869 Y125.595 E59.77564
G1 X92.569 Y125.267 E59.82898
G1 X91.693 Y124.226 E59.99225
G1 X91.426 Y123.881 E60.0446
G1 X90.665 Y122.812 E60.20206
G1 X90.402 Y122.405 E60.26021
G1 X89.694 Y121.194 E60.42854
G1 X89.484 Y120.798 E60.48233
G1 X88.898 Y119.572 E60.64539
G1 X88.722 Y119.161 E60.69905
G1 X88.239 Y117.89 E60.86221
G1 X88.093 Y117.451 E60.91773
G1 X87.722 Y116.148 E61.0803
G1 X87.615 Y115.697 E61.13592
G1 X87.356 Y114.361 E61.29923
G1 X87.292 Y113.942 E61.35009
G1 X87.144 Y112.639 E61.50746
G1 X87.111 Y112.173 E61.56352
G1 X87.075 Y110.816 E61.72641
G0 F3600 X87.475 Y110.806
G1 F1800 X87.481 Y110.389 E61.77646
G1 X87.558 Y109.035 E61.9392
G1 X87.6 Y108.614 E61.98997
G1 X87.835 Y106.965 E62.18985
G1 X87.918 Y106.525 E62.24358
G1 X88.298 Y104.909 E62.44279
G1 X88.414 Y104.495 E62.49438
G1 X88.931 Y102.919 E62.69342
G1 X89.086 Y102.509 E62.74602
G1 X89.741 Y100.98 E62.94563
G1 X89.931 Y100.585 E62.99822
G1 X90.715 Y99.124 E63.19719
G1 X90.933 Y98.756 E63.24852
G1 X91.841 Y97.364 E63.44795
G1 X92.098 Y97.006 E63.50084
G1 X93.124 Y95.701 E63.70004
G1 X93.41 Y95.369 E63.75263
G1 X94.547 Y94.158 E63.95196
G1 X94.851 Y93.86 E64.00304
G1 X96.086 Y92.751 E64.20223
G1 X96.448 Y92.455 E64.25834
G1 X97.826 Y91.433 E64.46421
G1 X98.164 Y91.204 E64.51321
G1 X99.527 Y90.356 E64.70584
G1 X99.928 Y90.131 E64.76101
G1 X101.461 Y89.363 E64.96677
G1 X101.837 Y89.194 E65.01624
G1 X103.33 Y88.594 E65.20932
G1 X103.764 Y88.442 E65.2645
G1 X105.406 Y87.952 E65.47013
G1 X105.809 Y87.85 E65.52002
G1 X107.382 Y87.52 E65.71289
G1 X107.829 Y87.447 E65.76724
G1 X109.534 Y87.248 E65.97322
G1 X109.952 Y87.217 E66.02352
G1 X111.556 Y87.165 E66.2161
G1 X112.013 Y87.171 E66.27095
G1 X113.723 Y87.272 E66.47651
G1 X114.133 Y87.313 E66.52595
G1 X115.726 Y87.54 E66.71904
G1 X116.182 Y87.627 E66.77475
G1 X117.849 Y88.025 E66.98041
G1 X118.241 Y88.135 E67.02927
G1 X119.768 Y88.634 E67.22204
G1 X120.185 Y88.791 E67.27551
G1 X121.711 Y89.445 E67.47474
