;FLAVOR:UltiGCode
;TIME:674
;MATERIAL:1301
;MATERIAL2:0
;NOZZLE_DIAMETER:0.4
;MINX:80.091
;MINY:86.718
;MINZ:0.3
;MAXX:129.65
;MAXY:136.282
;MAXZ:7.05
;Generated with Cura_SteamEngine 5.0.0
M82 ;absolute extrusion mode
G0 F3000 Y50 ;avoid prime blob
G92 E0
G92 E0
G10
;LAYER_COUNT:46
;LAYER:0
M107
G0 F3600 X87.913 Y93.425 Z0.3
G0 X80.92 Y105.126
;TYPE:SKIRT
G11
G1 F1800 X81.04 Y104.691 E0.05415
G1 X81.339 Y103.718 E0.1763
G1 X81.492 Y103.27 E0.23311
G1 X81.849 Y102.318 E0.35512
G1 X82.028 Y101.88 E0.4119
G1 X82.441 Y100.954 E0.53357
G1 X82.64 Y100.542 E0.58847
G1 X83.108 Y99.639 E0.71052
G1 X83.337 Y99.227 E0.76708
G1 X83.858 Y98.355 E0.88898
G1 X84.11 Y97.961 E0.9451
G1 X84.683 Y97.121 E1.06712
G1 X84.957 Y96.744 E1.12305
G1 X85.578 Y95.941 E1.24486
G1 X85.869 Y95.586 E1.29994
G1 X86.537 Y94.82 E1.42191
G1 X86.862 Y94.47 E1.47922
G1 X87.575 Y93.747 E1.60107
G1 X87.913 Y93.425 E1.65709
G1 X88.669 Y92.745 E1.77911
G1 X89.022 Y92.446 E1.83462
G1 X89.817 Y91.812 E1.95665
G1 X90.188 Y91.533 E2.01235
G1 X91.02 Y90.947 E2.13447
G1 X91.415 Y90.686 E2.19128
G1 X92.277 Y90.154 E2.31284
G1 X92.676 Y89.924 E2.3681
G1 X93.573 Y89.441 E2.49035
G1 X93.994 Y89.231 E2.54681
G1 X94.914 Y88.805 E2.66847
G1 X95.335 Y88.625 E2.72342
G1 X96.283 Y88.252 E2.84566
G1 X96.735 Y88.09 E2.90328
G1 X97.701 Y87.777 E3.02514
G1 X98.141 Y87.648 E3.08016
G1 X99.125 Y87.392 E3.20217
G1 X99.587 Y87.287 E3.25902
G1 X100.586 Y87.091 E3.38119
G1 X101.035 Y87.016 E3.43581
G1 X102.041 Y86.879 E3.55765
G1 X102.511 Y86.83 E3.61435
G1 X103.525 Y86.754 E3.73638
G1 X103.993 Y86.733 E3.79259
G1 X105.007 Y86.718 E3.91429
G1 X105.475 Y86.725 E3.97045
G1 X106.49 Y86.771 E4.09238
G1 X106.95 Y86.806 E4.14774
G1 X107.961 Y86.912 E4.26972
G1 X108.412 Y86.972 E4.32432
G1 X109.417 Y87.137 E4.44653
G1 X109.905 Y87.233 E4.50622
G1 X110.894 Y87.461 E4.62801
G1 X111.323 Y87.573 E4.68121
G1 X112.298 Y87.857 E4.80308
G1 X112.751 Y88.004 E4.86023
G1 X113.707 Y88.347 E4.98211
G1 X114.144 Y88.519 E5.03846
G1 X115.078 Y88.919 E5.16039
G1 X115.492 Y89.111 E5.21515
G1 X116.403 Y89.566 E5.33735
G1 X116.812 Y89.785 E5.39302
G1 X117.692 Y90.292 E5.51489
G1 X118.102 Y90.546 E5.57277
G1 X118.95 Y91.107 E5.69478
G1 X119.321 Y91.368 E5.74922
G1 X120.133 Y91.976 E5.87094
G1 X120.506 Y92.273 E5.92816
G1 X121.28 Y92.93 E6.04999
G1 X121.62 Y93.237 E6.10496
G1 X122.356 Y93.94 E6.2271
G1 X122.694 Y94.284 E6.28497
G1 X123.384 Y95.03 E6.40691
G1 X123.681 Y95.37 E6.46108
G1 X124.327 Y96.155 E6.58308
G1 X124.612 Y96.524 E6.63903
G1 X125.209 Y97.345 E6.76084
G1 X125.475 Y97.733 E6.81729
G1 X126.023 Y98.591 E6.93946
G1 X126.262 Y98.992 E6.99548
G1 X126.756 Y99.878 E7.11721
G1 X126.974 Y100.299 E7.1741
G1 X127.414 Y101.215 E7.29604
G1 X127.595 Y101.621 E7.34939
G1 X127.983 Y102.563 E7.47164
G1 X128.151 Y103.01 E7.52894
G1 X128.479 Y103.969 E7.65057
G1 X128.62 Y104.426 E7.70796
G1 X128.889 Y105.405 E7.82979
G1 X128.997 Y105.847 E7.88439
G1 X129.209 Y106.842 E8.00647
G1 X129.292 Y107.299 E8.06221
G1 X129.444 Y108.303 E8.18406
G1 X129.501 Y108.773 E8.24088
G1 X129.592 Y109.786 E8.36293
G1 X129.62 Y110.254 E8.41919
G1 X129.65 Y111.269 E8.54104
G1 X129.65 Y111.729 E8.59624
G1 X129.62 Y112.746 E8.71833
G1 X129.592 Y113.215 E8.77471
G1 X129.501 Y114.226 E8.89652
G1 X129.444 Y114.692 E8.95286
G1 X129.292 Y115.698 E9.07495
G1 X129.211 Y116.15 E9.13005
G1 X129 Y117.146 E9.25223
G1 X128.888 Y117.605 E9.30892
G1 X128.618 Y118.583 E9.43067
G1 X128.48 Y119.029 E9.4867
G1 X128.152 Y119.989 E9.60844
G1 X127.983 Y120.438 E9.66601
G1 X127.595 Y121.38 E9.78826
G1 X127.414 Y121.786 E9.8416
G1 X126.974 Y122.702 E9.96354
G1 X126.756 Y123.123 E10.02044
G1 X126.262 Y124.009 E10.14217
G1 X126.023 Y124.409 E10.19808
G1 X125.477 Y125.264 E10.31982
G1 X125.213 Y125.651 E10.37603
G1 X124.615 Y126.474 E10.49811
G1 X124.328 Y126.845 E10.5544
G1 X123.682 Y127.63 E10.67639
G1 X123.385 Y127.971 E10.73066
G1 X122.694 Y128.718 E10.85277
G1 X122.351 Y129.065 E10.91132
G1 X121.616 Y129.766 E11.0332
G1 X121.281 Y130.068 E11.08732
G1 X120.506 Y130.726 E11.20932
G1 X120.132 Y131.025 E11.26678
G1 X119.321 Y131.632 E11.38834
G1 X118.949 Y131.893 E11.44287
G1 X118.099 Y132.455 E11.56515
G1 X117.693 Y132.706 E11.62243
G1 X116.812 Y133.214 E11.74447
G1 X116.404 Y133.434 E11.80009
G1 X115.494 Y133.889 E11.92218
G1 X115.076 Y134.083 E11.97748
G1 X114.144 Y134.482 E12.09914
G1 X113.703 Y134.655 E12.15599
G1 X112.745 Y134.998 E12.27809
G1 X112.297 Y135.143 E12.3346
G1 X111.322 Y135.427 E12.45646
G1 X110.886 Y135.54 E12.51051
G1 X109.897 Y135.767 E12.63227
G1 X109.423 Y135.861 E12.69026
G1 X108.418 Y136.027 E12.8125
G1 X107.96 Y136.088 E12.86794
G1 X106.949 Y136.194 E12.98993
G1 X106.489 Y136.229 E13.04529
G1 X105.473 Y136.275 E13.16733
G1 X105.005 Y136.282 E13.2235
G1 X103.991 Y136.267 E13.34519
G1 X103.522 Y136.246 E13.40153
G1 X102.51 Y136.17 E13.52331
G1 X102.044 Y136.121 E13.57954
G1 X101.036 Y135.984 E13.70161
G1 X100.589 Y135.91 E13.75598
G1 X99.592 Y135.715 E13.87789
G1 X99.118 Y135.607 E13.93622
G1 X98.134 Y135.35 E14.05826
G1 X97.696 Y135.222 E14.11302
G1 X96.729 Y134.908 E14.23503
G1 X96.286 Y134.749 E14.29151
G1 X95.339 Y134.377 E14.4136
G1 X94.913 Y134.195 E14.46919
G1 X93.991 Y133.768 E14.59112
G1 X93.571 Y133.557 E14.64752
G1 X92.676 Y133.075 E14.76951
G1 X92.277 Y132.846 E14.82471
G1 X91.415 Y132.314 E14.94627
G1 X91.02 Y132.053 E15.00308
G1 X90.188 Y131.467 E15.1252
G1 X89.816 Y131.187 E15.18107
G1 X89.02 Y130.552 E15.30326
G1 X88.668 Y130.255 E15.35853
G1 X87.913 Y129.576 E15.48038
G1 X87.575 Y129.253 E15.53648
G1 X86.861 Y128.529 E15.6585
G1 X86.536 Y128.178 E15.7159
G1 X85.869 Y127.413 E15.8377
G1 X85.576 Y127.056 E15.89312
G1 X84.954 Y126.251 E16.0152
G1 X84.684 Y125.879 E16.07035
G1 X84.112 Y125.041 E16.19211
G1 X83.859 Y124.647 E16.2483
G1 X83.337 Y123.774 E16.37035
G1 X83.105 Y123.357 E16.42762
G1 X82.638 Y122.455 E16.5495
G1 X82.442 Y122.047 E16.60382
G1 X82.028 Y121.119 E16.72576
G1 X81.845 Y120.673 E16.78361
G1 X81.489 Y119.721 E16.90558
G1 X81.341 Y119.287 E16.9606
G1 X81.042 Y118.317 E17.08241
G1 X80.918 Y117.866 E17.13853
G1 X80.677 Y116.877 E17.26069
G1 X80.581 Y116.425 E17.31614
G1 X80.399 Y115.424 E17.43823
G1 X80.329 Y114.96 E17.49454
G1 X80.208 Y113.953 E17.61624
G1 X80.166 Y113.491 E17.67191
G1 X80.105 Y112.479 E17.79357
G1 X80.091 Y112.01 E17.84988
G1 X80.091 Y110.991 E17.97216
G1 X80.105 Y110.522 E18.02846
G1 X80.166 Y109.509 E18.15024
G1 X80.207 Y109.049 E18.20566
G1 X80.328 Y108.04 E18.32761
G1 X80.398 Y107.578 E18.38368
G1 X80.579 Y106.579 E18.50552
G1 X80.678 Y106.114 E18.56257
G1 X80.92 Y105.126 E18.68463
G10
G0 F3600 X80.891 Y110.991
G11
G1 F1800 X80.904 Y110.57 E18.73517
G1 X80.965 Y109.557 E18.85695
G1 X81.002 Y109.145 E18.90659
G1 X81.123 Y108.136 E19.02854
G1 X81.185 Y107.721 E19.07889
G1 X81.366 Y106.722 E19.20073
G1 X81.455 Y106.305 E19.25189
G1 X81.697 Y105.317 E19.37396
G1 X81.805 Y104.926 E19.42263
G1 X82.104 Y103.953 E19.54478
G1 X82.241 Y103.551 E19.59575
G1 X82.598 Y102.599 E19.71776
G1 X82.759 Y102.206 E19.76872
G1 X83.172 Y101.28 E19.89039
G1 X83.35 Y100.91 E19.93966
G1 X83.818 Y100.007 E20.06171
G1 X84.024 Y99.638 E20.11242
G1 X84.545 Y98.766 E20.23432
G1 X84.771 Y98.411 E20.28482
G1 X85.344 Y97.571 E20.40684
G1 X85.59 Y97.234 E20.4569
G1 X86.211 Y96.431 E20.57872
G1 X86.472 Y96.112 E20.62818
G1 X87.14 Y95.346 E20.75014
G1 X87.432 Y95.032 E20.8016
G1 X88.145 Y94.309 E20.92345
G1 X88.448 Y94.02 E20.97369
G1 X89.204 Y93.34 E21.09571
G1 X89.521 Y93.071 E21.1456
G1 X90.316 Y92.437 E21.26763
G1 X90.649 Y92.187 E21.31759
G1 X91.481 Y91.601 E21.43971
G1 X91.836 Y91.367 E21.49073
G1 X92.698 Y90.835 E21.61229
G1 X93.055 Y90.629 E21.66175
G1 X93.952 Y90.146 E21.784
G1 X94.33 Y89.957 E21.83471
G1 X95.25 Y89.531 E21.95638
G1 X95.628 Y89.369 E22.00573
G1 X96.576 Y88.996 E22.12798
G1 X96.981 Y88.851 E22.1796
G1 X97.947 Y88.538 E22.30145
G1 X98.343 Y88.423 E22.35093
G1 X99.327 Y88.167 E22.47294
G1 X99.741 Y88.072 E22.52391
G1 X100.74 Y87.876 E22.64608
G1 X101.143 Y87.809 E22.6951
G1 X102.149 Y87.672 E22.81694
G1 X102.571 Y87.628 E22.86785
G1 X103.585 Y87.552 E22.98987
G1 X104.004 Y87.533 E23.04021
G1 X105.018 Y87.518 E23.1619
G1 X105.439 Y87.524 E23.21242
G1 X106.454 Y87.57 E23.33435
G1 X106.867 Y87.601 E23.38405
G1 X107.878 Y87.707 E23.50603
G1 X108.282 Y87.761 E23.55494
G1 X109.287 Y87.926 E23.67716
G1 X109.726 Y88.013 E23.73086
G1 X110.715 Y88.241 E23.85266
G1 X111.1 Y88.341 E23.90039
G1 X112.075 Y88.625 E24.02225
G1 X112.481 Y88.757 E24.07348
G1 X113.437 Y89.1 E24.19536
G1 X113.829 Y89.254 E24.2459
G1 X114.763 Y89.654 E24.36783
G1 X115.135 Y89.827 E24.41706
G1 X116.046 Y90.282 E24.53926
G1 X116.412 Y90.479 E24.58913
G1 X117.292 Y90.986 E24.71101
G1 X117.66 Y91.213 E24.76289
G1 X118.508 Y91.774 E24.8849
G1 X118.842 Y92.009 E24.93391
G1 X119.654 Y92.617 E25.05564
G1 X119.988 Y92.883 E25.10688
G1 X120.762 Y93.54 E25.22871
G1 X121.067 Y93.815 E25.27799
G1 X121.803 Y94.518 E25.40012
G1 X122.107 Y94.827 E25.45214
G1 X122.797 Y95.573 E25.57408
G1 X123.063 Y95.878 E25.62264
G1 X123.709 Y96.663 E25.74464
G1 X123.965 Y96.994 E25.79485
G1 X124.562 Y97.815 E25.91667
G1 X124.8 Y98.164 E25.96736
G1 X125.348 Y99.022 E26.08953
G1 X125.563 Y99.381 E26.13974
G1 X126.057 Y100.267 E26.26147
G1 X126.253 Y100.645 E26.31257
G1 X126.693 Y101.561 E26.43451
G1 X126.855 Y101.926 E26.48243
G1 X127.243 Y102.868 E26.60468
G1 X127.394 Y103.269 E26.6561
G1 X127.722 Y104.228 E26.77773
G1 X127.849 Y104.638 E26.82923
G1 X128.118 Y105.617 E26.95107
G1 X128.214 Y106.013 E26.99996
G1 X128.426 Y107.008 E27.12204
G1 X128.501 Y107.419 E27.17218
G1 X128.653 Y108.423 E27.29403
G1 X128.704 Y108.845 E27.34504
G1 X128.795 Y109.858 E27.46709
G1 X128.82 Y110.277 E27.51746
G1 X128.85 Y111.292 E27.63931
G1 X128.85 Y111.705 E27.68887
G1 X128.82 Y112.722 E27.81096
G1 X128.795 Y113.144 E27.86169
G1 X128.704 Y114.155 E27.9835
G1 X128.653 Y114.573 E28.03404
G1 X128.501 Y115.579 E28.15613
G1 X128.428 Y115.984 E28.20551
G1 X128.217 Y116.98 E28.32768
G1 X128.117 Y117.392 E28.37856
G1 X127.847 Y118.37 E28.50031
G1 X127.723 Y118.77 E28.55056
G1 X127.395 Y119.73 E28.6723
G1 X127.243 Y120.133 E28.72398
G1 X126.855 Y121.075 E28.84624
G1 X126.693 Y121.44 E28.89416
G1 X126.253 Y122.356 E29.0161
G1 X126.057 Y122.734 E29.0672
G1 X125.563 Y123.62 E29.18893
G1 X125.349 Y123.978 E29.23898
G1 X124.803 Y124.833 E29.36071
G1 X124.566 Y125.181 E29.41124
G1 X123.968 Y126.004 E29.53332
G1 X123.71 Y126.337 E29.58387
G1 X123.064 Y127.122 E29.70586
G1 X122.798 Y127.427 E29.75443
G1 X122.107 Y128.174 E29.87654
G1 X121.799 Y128.487 E29.92923
G1 X121.064 Y129.188 E30.05111
G1 X120.764 Y129.458 E30.09955
G1 X119.989 Y130.116 E30.22155
G1 X119.652 Y130.384 E30.27321
G1 X118.841 Y130.991 E30.39477
G1 X118.508 Y131.226 E30.44368
G1 X117.658 Y131.788 E30.56596
G1 X117.294 Y132.013 E30.61731
G1 X116.413 Y132.521 E30.73935
G1 X116.046 Y132.718 E30.78933
G1 X115.136 Y133.173 E30.91142
G1 X114.761 Y133.347 E30.96103
G1 X113.829 Y133.746 E31.08269
G1 X113.434 Y133.901 E31.13361
G1 X112.476 Y134.244 E31.25571
G1 X112.074 Y134.375 E31.30645
G1 X111.099 Y134.659 E31.42831
G1 X110.707 Y134.761 E31.47692
G1 X109.718 Y134.988 E31.59869
G1 X109.293 Y135.071 E31.65065
G1 X108.288 Y135.237 E31.77288
G1 X107.877 Y135.293 E31.82266
G1 X106.866 Y135.399 E31.94464
G1 X106.453 Y135.43 E31.99434
G1 X105.437 Y135.476 E32.11639
G1 X105.016 Y135.482 E32.16691
G1 X104.002 Y135.467 E32.28861
G1 X103.582 Y135.448 E32.33906
G1 X102.57 Y135.372 E32.46084
G1 X102.151 Y135.328 E32.5114
G1 X101.143 Y135.191 E32.63347
G1 X100.742 Y135.125 E32.68224
G1 X99.745 Y134.93 E32.80414
G1 X99.32 Y134.833 E32.85645
G1 X98.336 Y134.576 E32.9785
G1 X97.943 Y134.461 E33.02763
G1 X96.976 Y134.147 E33.14964
G1 X96.579 Y134.004 E33.20027
G1 X95.632 Y133.632 E33.32237
G1 X95.249 Y133.469 E33.37232
G1 X94.327 Y133.042 E33.49425
G1 X93.95 Y132.853 E33.54485
G1 X93.055 Y132.371 E33.66684
G1 X92.698 Y132.165 E33.7163
G1 X91.836 Y131.633 E33.83785
G1 X91.481 Y131.399 E33.88887
G1 X90.649 Y130.813 E34.01099
G1 X90.315 Y130.562 E34.06113
G1 X89.519 Y129.927 E34.18332
G1 X89.203 Y129.66 E34.23296
G1 X88.448 Y128.981 E34.35481
G1 X88.145 Y128.691 E34.40514
G1 X87.431 Y127.967 E34.52716
G1 X87.139 Y127.652 E34.5787
G1 X86.472 Y126.887 E34.7005
G1 X86.209 Y126.567 E34.7502
G1 X85.587 Y125.762 E34.87228
G1 X85.344 Y125.428 E34.92185
G1 X84.772 Y124.59 E35.0436
G1 X84.546 Y124.236 E35.094
G1 X84.024 Y123.363 E35.21606
G1 X83.816 Y122.989 E35.26741
G1 X83.349 Y122.087 E35.3893
G1 X83.172 Y121.721 E35.43808
G1 X82.758 Y120.793 E35.56002
G1 X82.594 Y120.393 E35.6119
G1 X82.238 Y119.441 E35.73387
G1 X82.106 Y119.051 E35.78327
G1 X81.807 Y118.081 E35.90508
G1 X81.695 Y117.676 E35.9555
G1 X81.454 Y116.687 E36.07766
G1 X81.368 Y116.282 E36.12734
G1 X81.186 Y115.281 E36.24943
G1 X81.123 Y114.864 E36.30004
G1 X81.002 Y113.857 E36.42175
G1 X80.965 Y113.443 E36.47162
G1 X80.904 Y112.431 E36.59328
G1 X80.891 Y112.01 E36.64383
G1 X80.891 Y110.991 E36.76611
G0 F3600 X81.291 Y110.991
G1 F1800 X81.303 Y110.594 E36.81377
G1 X81.364 Y109.581 E36.93555
G1 X81.399 Y109.192 E36.98242
G1 X81.52 Y108.183 E37.10437
G1 X81.579 Y107.792 E37.15182
G1 X81.76 Y106.793 E37.27365
G1 X81.843 Y106.4 E37.32185
G1 X82.085 Y105.412 E37.44391
G1 X82.187 Y105.043 E37.48985
G1 X82.486 Y104.07 E37.612
G1 X82.615 Y103.692 E37.65993
G1 X82.972 Y102.74 E37.78194
G1 X83.124 Y102.369 E37.83005
G1 X83.537 Y101.443 E37.95172
G1 X83.705 Y101.094 E37.9982
G1 X84.173 Y100.191 E38.12025
G1 X84.367 Y99.843 E38.16806
G1 X84.888 Y98.971 E38.28996
G1 X85.102 Y98.637 E38.33756
G1 X85.675 Y97.797 E38.45958
G1 X85.906 Y97.478 E38.50684
G1 X86.527 Y96.675 E38.62865
G1 X86.774 Y96.375 E38.67528
G1 X87.442 Y95.609 E38.79725
G1 X87.717 Y95.313 E38.84573
G1 X88.43 Y94.59 E38.96758
G1 X88.715 Y94.317 E39.01494
G1 X89.471 Y93.637 E39.13696
G1 X89.77 Y93.384 E39.18396
G1 X90.565 Y92.75 E39.30598
G1 X90.879 Y92.514 E39.35312
G1 X91.711 Y91.928 E39.47524
G1 X92.046 Y91.708 E39.52333
G1 X92.908 Y91.176 E39.64489
G1 X93.245 Y90.981 E39.69161
G1 X94.142 Y90.498 E39.81386
G1 X94.498 Y90.32 E39.86162
G1 X95.418 Y89.894 E39.98328
G1 X95.774 Y89.741 E40.02978
G1 X96.722 Y89.368 E40.15203
G1 X97.105 Y89.231 E40.20084
G1 X98.071 Y88.918 E40.3227
G1 X98.443 Y88.81 E40.36918
G1 X99.427 Y88.554 E40.49119
G1 X99.818 Y88.464 E40.53934
G1 X100.817 Y88.268 E40.6615
G1 X101.197 Y88.205 E40.70772
G1 X102.203 Y88.068 E40.82956
G1 X102.601 Y88.026 E40.87758
G1 X103.615 Y87.95 E40.99961
G1 X104.01 Y87.933 E41.04705
G1 X105.024 Y87.918 E41.16874
G1 X105.421 Y87.924 E41.21639
G1 X106.436 Y87.97 E41.33831
G1 X106.825 Y87.999 E41.38512
G1 X107.836 Y88.105 E41.50711
G1 X108.217 Y88.156 E41.55324
G1 X109.222 Y88.321 E41.67545
G1 X109.636 Y88.403 E41.72609
G1 X110.625 Y88.631 E41.84789
G1 X110.988 Y88.725 E41.89288
G1 X111.963 Y89.009 E42.01475
G1 X112.346 Y89.134 E42.06309
G1 X113.302 Y89.477 E42.18497
G1 X113.671 Y89.622 E42.23255
G1 X114.605 Y90.022 E42.35448
G1 X114.956 Y90.184 E42.40086
G1 X115.867 Y90.639 E42.52306
G1 X116.213 Y90.825 E42.5702
G1 X117.093 Y91.332 E42.69207
G1 X117.44 Y91.547 E42.74106
G1 X118.288 Y92.108 E42.86307
G1 X118.602 Y92.329 E42.90915
G1 X119.414 Y92.937 E43.03088
G1 X119.729 Y93.188 E43.07921
G1 X120.503 Y93.845 E43.20104
G1 X120.791 Y94.104 E43.24752
G1 X121.527 Y94.807 E43.36965
G1 X121.813 Y95.098 E43.41861
G1 X122.503 Y95.844 E43.54056
G1 X122.754 Y96.132 E43.5864
G1 X123.4 Y96.917 E43.7084
G1 X123.642 Y97.229 E43.75578
G1 X124.239 Y98.05 E43.87759
G1 X124.463 Y98.379 E43.92535
G1 X125.011 Y99.237 E44.04752
G1 X125.214 Y99.576 E44.09494
