;FLAVOR:UltiGCode
;TIME:410
;MATERIAL:543
;MATERIAL2:0
;NOZZLE_DIAMETER:0.4
;MINX:99.215
;MINY:98.215
;MINZ:0.3
;MAXX:123.785
;MAXY:124.785
;MAXZ:12
;Generated with Cura_SteamEngine 5.0.0
M82 ;absolute extrusion mode
G0 F3000 Y50 ;avoid prime blob
G92 E0
G92 E0
G10
;LAYER_COUNT:79
;LAYER:0
M107
G0 F3600 X101.638 Y100.364 Z0.3
G0 X99.215 Y106.015
;TYPE:SKIRT
G11
G1 F1800 X99.255 Y105.226 E0.0948
G1 X99.374 Y104.446 E0.18948
G1 X99.572 Y103.681 E0.28431
G1 X99.846 Y102.941 E0.379
G1 X100.194 Y102.232 E0.47378
G1 X100.612 Y101.561 E0.56864
G1 X101.095 Y100.937 E0.66333
G1 X101.638 Y100.364 E0.75806
G1 X102.237 Y99.849 E0.85286
G1 X102.885 Y99.398 E0.9476
G1 X103.576 Y99.014 E1.04246
G1 X104.301 Y98.702 E1.13718
G1 X105.054 Y98.465 E1.23191
G1 X105.828 Y98.306 E1.32673
G1 X106.613 Y98.225 E1.42143
G1 X107.015 Y98.215 E1.46968
G1 X115.985 Y98.215 E2.54608
G1 X116.774 Y98.255 E2.64088
G1 X117.554 Y98.374 E2.73556
G1 X118.319 Y98.572 E2.83039
G1 X119.059 Y98.846 E2.92508
G1 X119.768 Y99.194 E3.01986
G1 X120.439 Y99.612 E3.11472
G1 X121.063 Y100.095 E3.20941
G1 X121.636 Y100.638 E3.30414
G1 X122.151 Y101.237 E3.39894
G1 X122.602 Y101.885 E3.49368
G1 X122.986 Y102.576 E3.58854
G1 X123.298 Y103.301 E3.68326
G1 X123.535 Y104.054 E3.77799
G1 X123.694 Y104.828 E3.87281
G1 X123.775 Y105.613 E3.96751
G1 X123.785 Y106.015 E4.01576
G1 X123.785 Y116.985 E5.33216
G1 X123.745 Y117.774 E5.42696
G1 X123.626 Y118.554 E5.52165
G1 X123.428 Y119.319 E5.61647
G1 X123.154 Y120.059 E5.71116
G1 X122.806 Y120.768 E5.80594
G1 X122.388 Y121.439 E5.9008
G1 X121.905 Y122.063 E5.99549
G1 X121.362 Y122.636 E6.09022
G1 X120.763 Y123.151 E6.18502
G1 X120.115 Y123.602 E6.27976
G1 X119.424 Y123.986 E6.37462
G1 X118.699 Y124.298 E6.46934
G1 X117.946 Y124.535 E6.56407
G1 X117.172 Y124.694 E6.65889
G1 X116.387 Y124.775 E6.75359
G1 X115.985 Y124.785 E6.80184
G1 X107.015 Y124.785 E7.87824
G1 X106.226 Y124.745 E7.97304
G1 X105.446 Y124.626 E8.06773
G1 X104.681 Y124.428 E8.16255
G1 X103.941 Y124.154 E8.25724
G1 X103.232 Y123.806 E8.35202
G1 X102.561 Y123.388 E8.44688
G1 X101.937 Y122.905 E8.54157
G1 X101.364 Y122.362 E8.6363
G1 X100.849 Y121.763 E8.7311
G1 X100.398 Y121.115 E8.82584
G1 X100.014 Y120.424 E8.9207
G1 X99.702 Y119.699 E9.01542
G1 X99.465 Y118.946 E9.11015
G1 X99.306 Y118.172 E9.20497
G1 X99.225 Y117.387 E9.29967
G1 X99.215 Y116.985 E9.34792
G1 X99.215 Y106.015 E10.66432
G0 F3600 X99.615 Y106.015
G1 F1800 X99.655 Y105.247 E10.75661
G1 X99.774 Y104.487 E10.84892
G1 X99.972 Y103.744 E10.94119
G1 X100.246 Y103.025 E11.03352
G1 X100.593 Y102.339 E11.12577
G1 X101.009 Y101.692 E11.21808
G1 X101.49 Y101.092 E11.31036
G1 X102.031 Y100.545 E11.40268
G1 X102.626 Y100.057 E11.49502
G1 X103.268 Y99.634 E11.58728
G1 X103.951 Y99.279 E11.67965
G1 X104.666 Y98.998 E11.77184
G1 X105.408 Y98.792 E11.86425
G1 X106.166 Y98.664 E11.95649
G1 X107.015 Y98.615 E12.05854
G1 X115.985 Y98.615 E13.13494
G1 X116.753 Y98.655 E13.22723
G1 X117.513 Y98.774 E13.31954
G1 X118.256 Y98.972 E13.41181
G1 X118.975 Y99.246 E13.50414
G1 X119.661 Y99.593 E13.5964
G1 X120.308 Y100.009 E13.6887
G1 X120.908 Y100.49 E13.78098
G1 X121.455 Y101.031 E13.8733
G1 X121.943 Y101.626 E13.96564
G1 X122.366 Y102.268 E14.0579
G1 X122.721 Y102.951 E14.15027
G1 X123.002 Y103.666 E14.24246
G1 X123.208 Y104.408 E14.33487
G1 X123.336 Y105.166 E14.42712
G1 X123.385 Y106.015 E14.52917
G1 X123.385 Y116.985 E15.84557
G1 X123.345 Y117.753 E15.93785
G1 X123.226 Y118.513 E16.03016
G1 X123.028 Y119.256 E16.12243
G1 X122.754 Y119.975 E16.21477
G1 X122.407 Y120.661 E16.30702
G1 X121.991 Y121.308 E16.39932
G1 X121.51 Y121.908 E16.4916
G1 X120.969 Y122.455 E16.58392
G1 X120.374 Y122.943 E16.67627
G1 X119.732 Y123.366 E16.76853
G1 X119.049 Y123.721 E16.8609
G1 X118.334 Y124.002 E16.95308
G1 X117.592 Y124.208 E17.04549
G1 X116.834 Y124.336 E17.13774
G1 X115.985 Y124.385 E17.23979
G1 X107.015 Y124.385 E18.31619
G1 X106.247 Y124.345 E18.40847
G1 X105.487 Y124.226 E18.50079
G1 X104.744 Y124.028 E18.59306
G1 X104.025 Y123.754 E18.68539
G1 X103.339 Y123.407 E18.77764
G1 X102.692 Y122.991 E18.86995
G1 X102.092 Y122.51 E18.96223
G1 X101.545 Y121.969 E19.05455
G1 X101.057 Y121.374 E19.14689
G1 X100.634 Y120.732 E19.23915
G1 X100.279 Y120.049 E19.33152
G1 X99.998 Y119.334 E19.42371
G1 X99.792 Y118.592 E19.51612
G1 X99.664 Y117.834 E19.60836
G1 X99.615 Y116.985 E19.71041
G1 X99.615 Y106.015 E21.02681
G0 F3600 X100.015 Y106.015
G1 F1800 X100.055 Y105.268 E21.11658
G1 X100.174 Y104.53 E21.20629
G1 X100.372 Y103.808 E21.29612
G1 X100.645 Y103.112 E21.38584
G1 X100.992 Y102.449 E21.47564
G1 X101.407 Y101.826 E21.56547
G1 X101.886 Y101.252 E21.65518
G1 X102.423 Y100.731 E21.74496
G1 X103.013 Y100.272 E21.83466
G1 X103.649 Y99.877 E21.92451
G1 X104.323 Y99.553 E22.01425
G1 X105.028 Y99.303 E22.10401
G1 X105.756 Y99.129 E22.19383
G1 X106.498 Y99.034 E22.2836
G1 X107.015 Y99.015 E22.34568
G1 X115.985 Y99.015 E23.42208
G1 X116.732 Y99.055 E23.51185
G1 X117.47 Y99.174 E23.60155
G1 X118.192 Y99.372 E23.69139
G1 X118.888 Y99.645 E23.7811
G1 X119.551 Y99.992 E23.8709
G1 X120.174 Y100.407 E23.96073
G1 X120.748 Y100.886 E24.05044
G1 X121.269 Y101.423 E24.14023
G1 X121.728 Y102.013 E24.22993
G1 X122.123 Y102.649 E24.31977
G1 X122.447 Y103.323 E24.40951
G1 X122.697 Y104.028 E24.49927
G1 X122.871 Y104.756 E24.58909
G1 X122.966 Y105.498 E24.67886
G1 X122.985 Y106.015 E24.74094
G1 X122.985 Y116.985 E26.05734
G1 X122.945 Y117.732 E26.14711
G1 X122.826 Y118.47 E26.23681
G1 X122.628 Y119.192 E26.32665
G1 X122.355 Y119.888 E26.41637
G1 X122.008 Y120.551 E26.50617
G1 X121.593 Y121.174 E26.59599
G1 X121.114 Y121.748 E26.68571
G1 X120.577 Y122.269 E26.77549
G1 X119.987 Y122.728 E26.86519
G1 X119.351 Y123.123 E26.95503
G1 X118.677 Y123.447 E27.04477
G1 X117.972 Y123.697 E27.13454
G1 X117.244 Y123.871 E27.22436
G1 X116.502 Y123.966 E27.31412
G1 X115.985 Y123.985 E27.37621
G1 X107.015 Y123.985 E28.45261
G1 X106.268 Y123.945 E28.54237
G1 X105.53 Y123.826 E28.63208
G1 X104.808 Y123.628 E28.72192
G1 X104.112 Y123.355 E28.81163
G1 X103.449 Y123.008 E28.90143
G1 X102.826 Y122.593 E28.99126
G1 X102.252 Y122.114 E29.08097
G1 X101.731 Y121.577 E29.17076
G1 X101.272 Y120.987 E29.26046
G1 X100.877 Y120.351 E29.3503
G1 X100.553 Y119.677 E29.44004
G1 X100.303 Y118.972 E29.5298
G1 X100.129 Y118.244 E29.61962
G1 X100.034 Y117.502 E29.70939
G1 X100.015 Y116.985 E29.77147
G1 X100.015 Y106.015 E31.08787
G0 F3600 X100.415 Y106.015
G1 F1800 X100.455 Y105.29 E31.175
G1 X100.574 Y104.573 E31.26222
G1 X100.772 Y103.874 E31.3494
G1 X101.045 Y103.201 E31.43655
G1 X101.39 Y102.562 E31.52369
G1 X101.804 Y101.965 E31.61087
G1 X102.28 Y101.417 E31.69798
G1 X102.814 Y100.924 E31.78519
G1 X103.399 Y100.494 E31.87231
G1 X104.028 Y100.13 E31.95952
G1 X104.693 Y99.837 E32.04672
G1 X105.386 Y99.619 E32.1339
G1 X106.098 Y99.479 E32.22098
G1 X107.015 Y99.415 E32.33129
G1 X115.985 Y99.415 E33.40769
G1 X116.71 Y99.455 E33.49482
G1 X117.427 Y99.574 E33.58204
G1 X118.126 Y99.772 E33.66922
G1 X118.799 Y100.045 E33.75637
G1 X119.438 Y100.39 E33.84351
G1 X120.035 Y100.804 E33.93069
G1 X120.583 Y101.28 E34.01779
G1 X121.076 Y101.814 E34.10501
G1 X121.506 Y102.399 E34.19213
G1 X121.87 Y103.028 E34.27934
G1 X122.163 Y103.693 E34.36654
G1 X122.381 Y104.386 E34.45372
G1 X122.521 Y105.098 E34.54079
G1 X122.585 Y106.015 E34.6511
G1 X122.585 Y116.985 E35.9675
G1 X122.545 Y117.71 E36.05463
G1 X122.426 Y118.427 E36.14185
G1 X122.228 Y119.126 E36.22903
G1 X121.955 Y119.799 E36.31618
G1 X121.61 Y120.438 E36.40333
G1 X121.196 Y121.035 E36.49051
G1 X120.72 Y121.583 E36.57761
G1 X120.186 Y122.076 E36.66482
G1 X119.601 Y122.506 E36.75195
G1 X118.972 Y122.87 E36.83915
G1 X118.307 Y123.163 E36.92636
G1 X117.614 Y123.381 E37.01353
G1 X116.902 Y123.521 E37.10061
G1 X115.985 Y123.585 E37.21092
G1 X107.015 Y123.585 E38.28732
G1 X106.29 Y123.545 E38.37445
G1 X105.573 Y123.426 E38.46167
G1 X104.874 Y123.228 E38.54885
G1 X104.201 Y122.955 E38.636
G1 X103.562 Y122.61 E38.72314
G1 X102.965 Y122.196 E38.81032
G1 X102.417 Y121.72 E38.89743
G1 X101.924 Y121.186 E38.98464
G1 X101.494 Y120.601 E39.07176
G1 X101.13 Y119.972 E39.15897
G1 X100.837 Y119.307 E39.24617
G1 X100.619 Y118.614 E39.33335
G1 X100.479 Y117.902 E39.42043
G1 X100.415 Y116.985 E39.53073
G1 X100.415 Y106.015 E40.84713
G0 F3600 X100.815 Y106.015
G1 F1800 X100.855 Y105.312 E40.93163
G1 X100.974 Y104.618 E41.01613
G1 X101.172 Y103.943 E41.10054
G1 X101.444 Y103.294 E41.18498
G1 X101.789 Y102.68 E41.2695
G1 X102.2 Y102.109 E41.35392
G1 X102.674 Y101.588 E41.43844
G1 X103.204 Y101.124 E41.52297
G1 X103.783 Y100.724 E41.60742
G1 X104.404 Y100.392 E41.69192
G1 X105.058 Y100.132 E41.77638
G1 X105.738 Y99.948 E41.86091
G1 X106.434 Y99.842 E41.94539
G1 X107.015 Y99.815 E42.01519
G1 X115.985 Y99.815 E43.09159
G1 X116.688 Y99.855 E43.17609
G1 X117.382 Y99.974 E43.26058
G1 X118.057 Y100.172 E43.34499
G1 X118.706 Y100.444 E43.42944
G1 X119.32 Y100.789 E43.51395
G1 X119.891 Y101.2 E43.59838
G1 X120.412 Y101.674 E43.6829
G1 X120.876 Y102.204 E43.76743
G1 X121.276 Y102.783 E43.85188
G1 X121.608 Y103.404 E43.93638
G1 X121.868 Y104.058 E44.02083
G1 X122.052 Y104.738 E44.10537
G1 X122.158 Y105.434 E44.18985
G1 X122.185 Y106.015 E44.25965
G1 X122.185 Y116.985 E45.57605
G1 X122.145 Y117.688 E45.66054
G1 X122.026 Y118.382 E45.74504
G1 X121.828 Y119.057 E45.82945
G1 X121.556 Y119.706 E45.91389
G1 X121.211 Y120.32 E45.99841
G1 X120.8 Y120.891 E46.08283
G1 X120.326 Y121.412 E46.16735
G1 X119.796 Y121.876 E46.25188
G1 X119.217 Y122.276 E46.33633
G1 X118.596 Y122.608 E46.42083
G1 X117.942 Y122.868 E46.50529
G1 X117.262 Y123.052 E46.58982
G1 X116.566 Y123.158 E46.67431
G1 X115.985 Y123.185 E46.7441
G1 X107.015 Y123.185 E47.8205
G1 X106.312 Y123.145 E47.905
G1 X105.618 Y123.026 E47.98949
G1 X104.943 Y122.828 E48.07391
G1 X104.294 Y122.556 E48.15835
G1 X103.68 Y122.211 E48.24286
G1 X103.109 Y121.8 E48.32729
G1 X102.588 Y121.326 E48.41181
G1 X102.124 Y120.796 E48.49634
G1 X101.724 Y120.217 E48.58079
G1 X101.392 Y119.596 E48.66529
G1 X101.132 Y118.942 E48.74974
G1 X100.948 Y118.262 E48.83428
G1 X100.842 Y117.566 E48.91876
G1 X100.815 Y116.985 E48.98856
G1 X100.815 Y106.015 E50.30496
G0 F3600 X101.215 Y106.015
G1 F1800 X101.255 Y105.335 E50.3867
G1 X101.374 Y104.665 E50.46836
G1 X101.571 Y104.013 E50.55009
G1 X101.843 Y103.389 E50.63177
G1 X102.187 Y102.801 E50.71352
G1 X102.597 Y102.257 E50.79527
G1 X103.068 Y101.766 E50.87691
G1 X103.593 Y101.332 E50.95865
G1 X104.165 Y100.963 E51.04033
G1 X104.777 Y100.664 E51.12207
G1 X105.419 Y100.439 E51.20371
G1 X106.084 Y100.29 E51.28548
G1 X107.015 Y100.215 E51.39757
G1 X115.985 Y100.215 E52.47397
G1 X116.665 Y100.255 E52.55571
G1 X117.335 Y100.374 E52.63736
G1 X117.987 Y100.571 E52.7191
G1 X118.611 Y100.843 E52.80078
G1 X119.199 Y101.187 E52.88253
G1 X119.743 Y101.597 E52.96428
G1 X120.234 Y102.068 E53.04592
G1 X120.668 Y102.593 E53.12766
G1 X121.037 Y103.165 E53.20934
G1 X121.336 Y103.777 E53.29108
G1 X121.561 Y104.419 E53.37271
G1 X121.71 Y105.084 E53.45449
G1 X121.785 Y106.015 E53.56658
G1 X121.785 Y116.985 E54.88298
G1 X121.745 Y117.665 E54.96472
G1 X121.626 Y118.335 E55.04637
G1 X121.429 Y118.987 E55.12811
G1 X121.157 Y119.611 E55.20979
G1 X120.813 Y120.199 E55.29154
G1 X120.403 Y120.743 E55.37328
G1 X119.932 Y121.234 E55.45493
G1 X119.407 Y121.668 E55.53667
G1 X118.835 Y122.037 E55.61835
G1 X118.223 Y122.336 E55.70009
G1 X117.581 Y122.561 E55.78172
G1 X116.916 Y122.71 E55.8635
G1 X115.985 Y122.785 E55.97558
G1 X107.015 Y122.785 E57.05198
G1 X106.335 Y122.745 E57.13373
G1 X105.665 Y122.626 E57.21538
G1 X105.013 Y122.429 E57.29712
G1 X104.389 Y122.157 E57.3788
G1 X103.801 Y121.813 E57.46055
G1 X103.257 Y121.403 E57.54229
G1 X102.766 Y120.932 E57.62394
G1 X102.332 Y120.407 E57.70568
G1 X101.963 Y119.835 E57.78736
G1 X101.664 Y119.223 E57.8691
G1 X101.439 Y118.581 E57.95073
G1 X101.29 Y117.916 E58.03251
G1 X101.215 Y116.985 E58.14459
G1 X101.215 Y106.015 E59.46099
G0 F3600 X101.615 Y106.015
G1 F1800 X101.655 Y105.359 E59.53986
G1 X101.774 Y104.713 E59.61868
G1 X101.971 Y104.086 E59.69755
G1 X102.243 Y103.488 E59.77639
G1 X102.585 Y102.927 E59.85523
G1 X102.993 Y102.412 E59.93407
G1 X103.46 Y101.95 E60.0129
G1 X103.98 Y101.549 E60.0917
G1 X104.544 Y101.213 E60.17048
G1 X105.146 Y100.949 E60.24936
G1 X105.775 Y100.759 E60.32821
G1 X106.422 Y100.648 E60.40698
G1 X107.015 Y100.615 E60.47825
G1 X115.985 Y100.615 E61.55465
G1 X116.641 Y100.655 E61.63352
G1 X117.287 Y100.774 E61.71235
G1 X117.914 Y100.971 E61.79121
G1 X118.512 Y101.243 E61.87005
G1 X119.073 Y101.585 E61.94889
G1 X119.588 Y101.993 E62.02773
G1 X120.05 Y102.46 E62.10656
G1 X120.451 Y102.98 E62.18536
G1 X120.787 Y103.544 E62.26414
G1 X121.051 Y104.146 E62.34302
G1 X121.241 Y104.775 E62.42187
G1 X121.352 Y105.422 E62.50065
G1 X121.385 Y106.015 E62.57192
G1 X121.385 Y116.985 E63.88832
G1 X121.345 Y117.641 E63.96718
G1 X121.226 Y118.287 E64.04601
G1 X121.029 Y118.914 E64.12487
G1 X120.757 Y119.512 E64.20371
G1 X120.415 Y120.073 E64.28255
G1 X120.007 Y120.588 E64.36139
G1 X119.54 Y121.05 E64.44022
G1 X119.02 Y121.451 E64.51902
G1 X118.456 Y121.787 E64.5978
G1 X117.854 Y122.051 E64.67668
G1 X117.225 Y122.241 E64.75553
G1 X116.578 Y122.352 E64.83431
G1 X115.985 Y122.385 E64.90558
G1 X107.015 Y122.385 E65.98198
G1 X106.359 Y122.345 E66.06084
G1 X105.713 Y122.226 E66.13967
G1 X105.086 Y122.029 E66.21853
G1 X104.488 Y121.757 E66.29737
G1 X103.927 Y121.415 E66.37621
G1 X103.412 Y121.007 E66.45505
G1 X102.95 Y120.54 E66.53388
G1 X102.549 Y120.02 E66.61268
G1 X102.213 Y119.456 E66.69146
G1 X101.949 Y118.854 E66.77034
G1 X101.759 Y118.225 E66.84919
G1 X101.648 Y117.578 E66.92797
G1 X101.615 Y116.985 E66.99924
G1 X101.615 Y106.015 E68.31564
G0 F3600 X102.015 Y106.015
G1 F1800 X102.055 Y105.384 E68.39151
G1 X102.174 Y104.763 E68.46738
G1 X102.371 Y104.163 E68.54317
G1 X102.642 Y103.591 E68.61912
G1 X102.982 Y103.059 E68.69488
G1 X103.388 Y102.574 E68.77078
G1 X103.851 Y102.144 E68.84661
G1 X104.365 Y101.775 E68.92254
G1 X104.921 Y101.475 E68.99835
G1 X105.51 Y101.247 E69.07414
G1 X106.124 Y101.095 E69.15005
G1 X107.015 Y101.015 E69.2574
G1 X115.985 Y101.015 E70.3338
G1 X116.616 Y101.055 E70.40967
G1 X117.237 Y101.174 E70.48554
G1 X117.837 Y101.371 E70.56133
G1 X118.409 Y101.642 E70.63728
G1 X118.941 Y101.982 E70.71304
G1 X119.426 Y102.388 E70.78894
G1 X119.856 Y102.851 E70.86477
G1 X120.225 Y103.365 E70.9407
G1 X120.525 Y103.921 E71.01651
G1 X120.753 Y104.51 E71.0923
G1 X120.905 Y105.124 E71.16821
G1 X120.985 Y106.015 E71.27556
G1 X120.985 Y116.985 E72.59196
G1 X120.945 Y117.616 E72.66783
G1 X120.826 Y118.237 E72.7437
G1 X120.629 Y118.837 E72.81949
G1 X120.358 Y119.409 E72.89544
G1 X120.018 Y119.941 E72.9712
G1 X119.612 Y120.426 E73.0471
G1 X119.149 Y120.856 E73.12293
G1 X118.635 Y121.225 E73.19886
G1 X118.079 Y121.525 E73.27467
G1 X117.49 Y121.753 E73.35046
G1 X116.876 Y121.905 E73.42636
G1 X115.985 Y121.985 E73.53371
G1 X107.015 Y121.985 E74.61011
G1 X106.384 Y121.945 E74.68599
G1 X105.763 Y121.826 E74.76186
G1 X105.163 Y121.629 E74.83764
G1 X104.591 Y121.358 E74.9136
G1 X104.059 Y121.018 E74.98936
G1 X103.574 Y120.612 E75.06526
G1 X103.144 Y120.149 E75.14109
G1 X102.775 Y119.635 E75.21702
G1 X102.475 Y119.079 E75.29283
G1 X102.247 Y118.49 E75.36862
G1 X102.095 Y117.876 E75.44452
G1 X102.015 Y116.985 E75.55187
G1 X102.015 Y106.015 E76.86827
G0 F3600 X102.415 Y106.015
G1 F1800 X102.455 Y105.41 E76.94103
G1 X102.574 Y104.816 E77.01373
G1 X102.77 Y104.242 E77.08651
G1 X103.041 Y103.699 E77.15934
G1 X103.38 Y103.196 E77.23213
G1 X103.782 Y102.743 E77.3048
