;FLAVOR:UltiGCode
;TIME:732
;MATERIAL:1526
;MATERIAL2:0
;NOZZLE_DIAMETER:0.4
;MINX:89.889
;MINY:88.919
;MINZ:0.3
;MAXX:132.89
;MAXY:131.921
;MAXZ:10.35
;Generated with Cura_SteamEngine 5.0.0
M82 ;absolute extrusion mode
G0 F3000 Y50 ;avoid prime blob
G92 E0
G92 E0
G10
;LAYER_COUNT:68
;LAYER:0
M107
G0 F3600 X95.945 Y95.459 Z0.3
G0 X90.535 Y105.179
;TYPE:SKIRT
G11
G1 F1800 X90.709 Y104.531 E0.08051
G1 X91.067 Y103.392 E0.22379
G1 X91.303 Y102.742 E0.30677
G1 X91.761 Y101.638 E0.4502
G1 X92.049 Y101.022 E0.5318
G1 X92.601 Y99.963 E0.6751
G1 X92.937 Y99.381 E0.75575
G1 X93.579 Y98.372 E0.89926
G1 X93.971 Y97.811 E0.98139
G1 X94.699 Y96.862 E1.12491
G1 X95.137 Y96.341 E1.20659
G1 X95.945 Y95.459 E1.35013
G1 X96.427 Y94.977 E1.43193
G1 X97.309 Y94.169 E1.57547
G1 X97.831 Y93.731 E1.65724
G1 X98.779 Y93.004 E1.8006
G1 X99.334 Y92.615 E1.88193
G1 X100.343 Y91.972 E2.0255
G1 X100.933 Y91.632 E2.10722
G1 X101.995 Y91.079 E2.2509
G1 X102.608 Y90.792 E2.33212
G1 X103.712 Y90.334 E2.47555
G1 X104.36 Y90.098 E2.55831
G1 X105.498 Y89.74 E2.70147
G1 X106.148 Y89.566 E2.78221
G1 X107.319 Y89.306 E2.92615
G1 X107.986 Y89.188 E3.00744
G1 X109.172 Y89.031 E3.151
G1 X109.856 Y88.971 E3.23339
G1 X111.049 Y88.919 E3.37669
G1 X111.729 Y88.919 E3.45829
G1 X112.922 Y88.971 E3.60159
G1 X113.606 Y89.031 E3.68398
G1 X114.792 Y89.188 E3.82754
G1 X115.459 Y89.306 E3.90883
G1 X116.63 Y89.566 E4.05277
G1 X117.278 Y89.74 E4.13328
G1 X118.417 Y90.098 E4.27655
G1 X119.067 Y90.334 E4.35954
G1 X120.171 Y90.792 E4.50296
G1 X120.785 Y91.079 E4.5843
G1 X121.845 Y91.631 E4.72771
G1 X122.436 Y91.972 E4.80959
G1 X123.446 Y92.616 E4.95333
G1 X123.998 Y93.003 E5.03423
G1 X124.945 Y93.729 E5.17742
G1 X125.464 Y94.164 E5.25868
G1 X126.346 Y94.971 E5.40214
G1 X126.835 Y95.46 E5.48513
G1 X127.643 Y96.343 E5.62875
G1 X128.078 Y96.862 E5.71002
G1 X128.805 Y97.81 E5.85338
G1 X129.191 Y98.361 E5.93411
G1 X129.835 Y99.37 E6.07775
G1 X130.18 Y99.966 E6.16039
G1 X130.732 Y101.027 E6.30391
G1 X131.016 Y101.636 E6.38454
G1 X131.474 Y102.739 E6.52786
G1 X131.712 Y103.393 E6.61137
G1 X132.07 Y104.533 E6.75476
G1 X132.241 Y105.17 E6.83391
G1 X132.502 Y106.339 E6.97764
G1 X132.622 Y107.021 E7.06074
G1 X132.778 Y108.206 E7.20417
G1 X132.838 Y108.885 E7.28596
G1 X132.89 Y110.079 E7.42938
G1 X132.89 Y110.757 E7.51074
G1 X132.838 Y111.952 E7.65427
G1 X132.778 Y112.63 E7.73595
G1 X132.622 Y113.816 E7.8795
G1 X132.502 Y114.496 E7.96236
G1 X132.241 Y115.667 E8.10633
G1 X132.069 Y116.308 E8.18597
G1 X131.712 Y117.444 E8.32886
G1 X131.475 Y118.096 E8.41211
G1 X131.016 Y119.202 E8.55581
G1 X130.733 Y119.81 E8.63628
G1 X130.182 Y120.87 E8.77964
G1 X129.839 Y121.464 E8.86195
G1 X129.196 Y122.473 E9.00553
G1 X128.807 Y123.029 E9.08695
G1 X128.079 Y123.978 E9.23048
G1 X127.642 Y124.499 E9.31208
G1 X126.835 Y125.38 E9.45545
G1 X126.352 Y125.862 E9.53734
G1 X125.469 Y126.671 E9.68104
G1 X124.947 Y127.109 E9.76281
G1 X123.999 Y127.836 E9.90617
G1 X123.447 Y128.223 E9.98707
G1 X122.439 Y128.866 E10.13055
G1 X121.846 Y129.208 E10.21269
G1 X120.784 Y129.761 E10.35638
G1 X120.171 Y130.048 E10.4376
G1 X119.067 Y130.506 E10.58103
G1 X118.417 Y130.742 E10.66401
G1 X117.278 Y131.1 E10.80728
G1 X116.63 Y131.274 E10.8878
G1 X115.459 Y131.534 E11.03174
G1 X114.792 Y131.652 E11.11302
G1 X113.606 Y131.809 E11.25658
G1 X112.922 Y131.869 E11.33898
G1 X111.729 Y131.921 E11.48227
G1 X111.049 Y131.921 E11.56387
G1 X109.856 Y131.869 E11.70717
G1 X109.172 Y131.809 E11.78956
G1 X107.986 Y131.652 E11.93313
G1 X107.319 Y131.534 E12.01441
G1 X106.148 Y131.274 E12.15835
G1 X105.498 Y131.1 E12.2391
G1 X104.36 Y130.742 E12.38225
G1 X103.712 Y130.506 E12.46501
G1 X102.608 Y130.048 E12.60844
G1 X101.995 Y129.761 E12.68966
G1 X100.933 Y129.208 E12.83334
G1 X100.343 Y128.868 E12.91506
G1 X99.334 Y128.225 E13.05864
G1 X98.779 Y127.836 E13.13997
G1 X97.831 Y127.109 E13.28333
G1 X97.306 Y126.668 E13.3656
G1 X96.424 Y125.859 E13.50922
G1 X95.948 Y125.383 E13.59
G1 X95.14 Y124.502 E13.73345
G1 X94.699 Y123.978 E13.81564
G1 X93.971 Y123.029 E13.95917
G1 X93.579 Y122.468 E14.04129
G1 X92.937 Y121.459 E14.1848
G1 X92.6 Y120.875 E14.26571
G1 X92.048 Y119.815 E14.40913
G1 X91.762 Y119.202 E14.4903
G1 X91.303 Y118.096 E14.634
G1 X91.066 Y117.444 E14.71725
G1 X90.709 Y116.308 E14.86014
G1 X90.535 Y115.661 E14.94054
G1 X90.275 Y114.49 E15.08448
G1 X90.157 Y113.816 E15.16659
G1 X90.001 Y112.63 E15.31014
G1 X89.942 Y111.96 E15.39085
G1 X89.889 Y110.769 E15.53391
G1 X89.889 Y110.076 E15.61707
G1 X89.942 Y108.881 E15.76061
G1 X90.001 Y108.21 E15.84144
G1 X90.157 Y107.024 E15.98499
G1 X90.275 Y106.35 E16.0671
G1 X90.535 Y105.179 E16.21104
G10
G0 F3600 X90.288 Y110.094
G11
G1 F1800 X90.341 Y108.899 E16.35458
G1 X90.397 Y108.262 E16.43131
G1 X90.553 Y107.076 E16.57486
G1 X90.666 Y106.437 E16.65273
G1 X90.926 Y105.266 E16.79667
G1 X91.09 Y104.651 E16.87305
G1 X91.448 Y103.512 E17.01632
G1 X91.673 Y102.895 E17.09513
G1 X92.131 Y101.791 E17.23856
G1 X92.404 Y101.207 E17.31592
G1 X92.956 Y100.148 E17.45923
G1 X93.275 Y99.596 E17.53573
G1 X93.917 Y98.587 E17.67924
G1 X94.289 Y98.055 E17.75714
G1 X95.017 Y97.106 E17.90067
G1 X95.432 Y96.611 E17.97818
G1 X96.24 Y95.729 E18.12172
G1 X96.697 Y95.272 E18.19928
G1 X97.579 Y94.464 E18.34282
G1 X98.075 Y94.048 E18.4205
G1 X99.023 Y93.321 E18.56386
G1 X99.549 Y92.952 E18.64096
G1 X100.558 Y92.309 E18.78454
G1 X101.117 Y91.987 E18.86195
G1 X102.179 Y91.434 E19.00563
G1 X102.761 Y91.162 E19.08273
G1 X103.865 Y90.704 E19.22615
G1 X104.48 Y90.48 E19.3047
G1 X105.618 Y90.122 E19.44785
G1 X106.235 Y89.957 E19.5245
G1 X107.406 Y89.697 E19.66844
G1 X108.039 Y89.585 E19.74558
G1 X109.225 Y89.428 E19.88914
G1 X109.874 Y89.371 E19.96732
G1 X111.067 Y89.319 E20.11061
G1 X111.711 Y89.319 E20.18789
G1 X112.904 Y89.371 E20.33119
G1 X113.553 Y89.428 E20.40937
G1 X114.739 Y89.585 E20.55293
G1 X115.372 Y89.697 E20.63007
G1 X116.543 Y89.957 E20.77401
G1 X117.158 Y90.121 E20.85039
G1 X118.297 Y90.479 E20.99367
G1 X118.914 Y90.704 E21.07247
G1 X120.018 Y91.162 E21.2159
G1 X120.6 Y91.434 E21.29299
G1 X121.66 Y91.986 E21.43641
G1 X122.22 Y92.309 E21.51398
G1 X123.23 Y92.953 E21.65773
G1 X123.754 Y93.32 E21.73449
G1 X124.701 Y94.046 E21.87769
G1 X125.194 Y94.459 E21.95486
G1 X126.076 Y95.266 E22.09832
G1 X126.54 Y95.73 E22.17706
G1 X127.348 Y96.613 E22.32069
G1 X127.761 Y97.106 E22.39787
G1 X128.488 Y98.054 E22.54123
G1 X128.854 Y98.576 E22.61773
G1 X129.498 Y99.585 E22.76137
G1 X129.825 Y100.151 E22.83981
G1 X130.377 Y101.212 E22.98333
G1 X130.646 Y101.789 E23.05973
G1 X131.104 Y102.892 E23.20304
G1 X131.33 Y103.513 E23.28234
G1 X131.688 Y104.653 E23.42573
G1 X131.85 Y105.258 E23.50089
G1 X132.111 Y106.427 E23.64462
G1 X132.226 Y107.073 E23.72336
G1 X132.382 Y108.258 E23.86679
G1 X132.438 Y108.902 E23.94436
G1 X132.49 Y110.096 E24.08778
G1 X132.49 Y110.74 E24.16506
G1 X132.438 Y111.935 E24.30859
G1 X132.382 Y112.578 E24.38604
G1 X132.226 Y113.764 E24.52959
G1 X132.112 Y114.409 E24.60819
G1 X131.851 Y115.58 E24.75216
G1 X131.688 Y116.189 E24.82781
G1 X131.331 Y117.325 E24.9707
G1 X131.106 Y117.942 E25.04951
G1 X130.647 Y119.048 E25.19321
G1 X130.378 Y119.625 E25.2696
G1 X129.827 Y120.685 E25.41296
G1 X129.502 Y121.249 E25.49107
G1 X128.859 Y122.258 E25.63465
G1 X128.489 Y122.785 E25.71192
G1 X127.761 Y123.734 E25.85545
G1 X127.347 Y124.228 E25.93279
G1 X126.54 Y125.109 E26.07616
G1 X126.082 Y125.567 E26.15389
G1 X125.199 Y126.376 E26.2976
G1 X124.703 Y126.792 E26.37528
G1 X123.755 Y127.519 E26.51864
G1 X123.232 Y127.886 E26.59531
G1 X122.224 Y128.529 E26.73878
G1 X121.662 Y128.853 E26.81663
G1 X120.6 Y129.406 E26.96031
G1 X120.018 Y129.678 E27.0374
G1 X118.914 Y130.136 E27.18083
G1 X118.297 Y130.361 E27.25964
G1 X117.158 Y130.719 E27.40291
G1 X116.543 Y130.883 E27.47929
G1 X115.372 Y131.143 E27.62323
G1 X114.739 Y131.255 E27.70037
G1 X113.553 Y131.412 E27.84393
G1 X112.904 Y131.469 E27.92211
G1 X111.711 Y131.521 E28.06541
G1 X111.067 Y131.521 E28.14269
G1 X109.874 Y131.469 E28.28599
G1 X109.225 Y131.412 E28.36417
G1 X108.039 Y131.255 E28.50773
G1 X107.406 Y131.143 E28.58487
G1 X106.235 Y130.883 E28.72881
G1 X105.618 Y130.718 E28.80545
G1 X104.48 Y130.36 E28.94861
G1 X103.865 Y130.136 E29.02715
G1 X102.761 Y129.678 E29.17058
G1 X102.179 Y129.406 E29.24767
G1 X101.117 Y128.853 E29.39135
G1 X100.558 Y128.531 E29.46877
G1 X99.549 Y127.888 E29.61234
G1 X99.023 Y127.519 E29.68944
G1 X98.075 Y126.792 E29.8328
G1 X97.576 Y126.373 E29.91099
G1 X96.694 Y125.564 E30.05461
G1 X96.242 Y125.113 E30.13124
G1 X95.434 Y124.232 E30.27469
G1 X95.017 Y123.734 E30.35263
G1 X94.289 Y122.785 E30.49616
G1 X93.917 Y122.253 E30.57406
G1 X93.275 Y121.244 E30.71757
G1 X92.955 Y120.69 E30.79434
G1 X92.403 Y119.63 E30.93776
G1 X92.131 Y119.048 E31.01485
G1 X91.672 Y117.942 E31.15854
G1 X91.447 Y117.325 E31.23735
G1 X91.09 Y116.189 E31.38025
G1 X90.926 Y115.574 E31.45662
G1 X90.666 Y114.403 E31.60057
G1 X90.553 Y113.764 E31.67844
G1 X90.397 Y112.578 E31.82198
G1 X90.341 Y111.942 E31.8986
G1 X90.288 Y110.751 E32.04166
G1 X90.288 Y110.094 E32.1205
G0 F3600 X90.688 Y110.112
G1 F1800 X90.741 Y108.917 E32.26404
G1 X90.794 Y108.314 E32.33668
G1 X90.95 Y107.128 E32.48022
G1 X91.056 Y106.524 E32.55381
G1 X91.316 Y105.353 E32.69775
G1 X91.472 Y104.771 E32.77006
G1 X91.83 Y103.632 E32.91333
G1 X92.042 Y103.049 E32.98777
G1 X92.5 Y101.945 E33.1312
G1 X92.759 Y101.391 E33.20459
G1 X93.311 Y100.332 E33.3479
G1 X93.612 Y99.81 E33.4202
G1 X94.254 Y98.801 E33.56371
G1 X94.606 Y98.298 E33.63739
G1 X95.334 Y97.349 E33.78092
G1 X95.726 Y96.882 E33.85408
G1 X96.534 Y96 E33.99762
G1 X96.968 Y95.566 E34.07127
G1 X97.85 Y94.758 E34.21481
G1 X98.318 Y94.365 E34.28815
G1 X99.266 Y93.638 E34.43151
G1 X99.764 Y93.29 E34.50441
G1 X100.773 Y92.647 E34.64799
G1 X101.302 Y92.341 E34.72132
G1 X102.364 Y91.788 E34.865
G1 X102.915 Y91.531 E34.93796
G1 X104.019 Y91.073 E35.08139
G1 X104.6 Y90.862 E35.15557
G1 X105.738 Y90.504 E35.29872
G1 X106.322 Y90.347 E35.37129
G1 X107.493 Y90.087 E35.51523
G1 X108.091 Y89.982 E35.58809
G1 X109.277 Y89.825 E35.73165
G1 X109.891 Y89.771 E35.80562
G1 X111.084 Y89.719 E35.94891
G1 X111.694 Y89.719 E36.02211
G1 X112.887 Y89.771 E36.16541
G1 X113.501 Y89.825 E36.23937
G1 X114.687 Y89.982 E36.38294
G1 X115.285 Y90.087 E36.45579
G1 X116.456 Y90.347 E36.59974
G1 X117.038 Y90.503 E36.67204
G1 X118.177 Y90.861 E36.81531
G1 X118.76 Y91.073 E36.88976
G1 X119.864 Y91.531 E37.03318
G1 X120.415 Y91.788 E37.10614
G1 X121.475 Y92.34 E37.24956
G1 X122.005 Y92.647 E37.32306
G1 X123.015 Y93.291 E37.4668
G1 X123.511 Y93.638 E37.53944
G1 X124.458 Y94.364 E37.68263
G1 X124.924 Y94.755 E37.75563
G1 X125.806 Y95.562 E37.89908
G1 X126.245 Y96 E37.9735
G1 X127.053 Y96.883 E38.11713
G1 X127.444 Y97.349 E38.19012
G1 X128.171 Y98.297 E38.33348
G1 X128.517 Y98.791 E38.40586
G1 X129.161 Y99.8 E38.5495
G1 X129.47 Y100.335 E38.62364
G1 X130.022 Y101.396 E38.76716
G1 X130.277 Y101.943 E38.83958
G1 X130.735 Y103.046 E38.9829
G1 X130.948 Y103.633 E39.05783
G1 X131.306 Y104.773 E39.20122
G1 X131.46 Y105.345 E39.2723
G1 X131.721 Y106.514 E39.41604
G1 X131.829 Y107.125 E39.49049
G1 X131.985 Y108.31 E39.63392
G1 X132.038 Y108.919 E39.70727
G1 X132.09 Y110.113 E39.85069
G1 X132.09 Y110.722 E39.92377
G1 X132.038 Y111.917 E40.06731
G1 X131.985 Y112.526 E40.14066
G1 X131.829 Y113.712 E40.28421
G1 X131.721 Y114.322 E40.35855
G1 X131.46 Y115.493 E40.50252
G1 X131.306 Y116.069 E40.57406
G1 X130.949 Y117.205 E40.71696
G1 X130.736 Y117.789 E40.79155
G1 X130.277 Y118.895 E40.93525
G1 X130.023 Y119.441 E41.00751
G1 X129.472 Y120.501 E41.15087
G1 X129.164 Y121.034 E41.22474
G1 X128.521 Y122.043 E41.36832
G1 X128.172 Y122.542 E41.44139
G1 X127.444 Y123.491 E41.58492
G1 X127.052 Y123.958 E41.65808
G1 X126.245 Y124.839 E41.80145
G1 X125.812 Y125.272 E41.87493
G1 X124.929 Y126.081 E42.01864
G1 X124.46 Y126.475 E42.09215
G1 X123.512 Y127.202 E42.23551
G1 X123.017 Y127.549 E42.30805
G1 X122.009 Y128.192 E42.45152
G1 X121.477 Y128.499 E42.52523
G1 X120.415 Y129.052 E42.66891
G1 X119.864 Y129.309 E42.74187
G1 X118.76 Y129.767 E42.8853
G1 X118.177 Y129.979 E42.95974
G1 X117.038 Y130.337 E43.10301
G1 X116.456 Y130.493 E43.17532
G1 X115.285 Y130.753 E43.31926
G1 X114.687 Y130.858 E43.39212
G1 X113.501 Y131.015 E43.53568
G1 X112.887 Y131.069 E43.60964
G1 X111.694 Y131.121 E43.75294
G1 X111.084 Y131.121 E43.82614
G1 X109.891 Y131.069 E43.96944
G1 X109.277 Y131.015 E44.0434
G1 X108.091 Y130.858 E44.18696
G1 X107.493 Y130.753 E44.25982
G1 X106.322 Y130.493 E44.40376
G1 X105.738 Y130.336 E44.47633
G1 X104.6 Y129.978 E44.61949
G1 X104.019 Y129.767 E44.69366
G1 X102.915 Y129.309 E44.83709
G1 X102.364 Y129.052 E44.91005
G1 X101.302 Y128.499 E45.05373
G1 X100.773 Y128.193 E45.12707
G1 X99.764 Y127.55 E45.27064
G1 X99.266 Y127.202 E45.34355
G1 X98.318 Y126.475 E45.48691
G1 X97.846 Y126.079 E45.56084
G1 X96.964 Y125.27 E45.70446
G1 X96.537 Y124.842 E45.77701
G1 X95.729 Y123.961 E45.92046
G1 X95.334 Y123.491 E45.99413
G1 X94.606 Y122.542 E46.13766
G1 X94.254 Y122.039 E46.21133
G1 X93.612 Y121.03 E46.35485
G1 X93.309 Y120.505 E46.42759
G1 X92.757 Y119.445 E46.571
G1 X92.501 Y118.895 E46.6438
G1 X92.042 Y117.789 E46.78749
G1 X91.829 Y117.205 E46.86209
G1 X91.472 Y116.069 E47.00498
G1 X91.316 Y115.487 E47.07729
G1 X91.056 Y114.316 E47.22123
G1 X90.95 Y113.712 E47.29482
G1 X90.794 Y112.526 E47.43836
G1 X90.741 Y111.924 E47.51088
G1 X90.688 Y110.733 E47.65394
G1 X90.688 Y110.112 E47.72846
G0 F3600 X91.087 Y110.13
G1 F1800 X91.14 Y108.935 E47.87201
G1 X91.19 Y108.366 E47.94055
G1 X91.346 Y107.18 E48.08409
G1 X91.447 Y106.61 E48.15356
G1 X91.707 Y105.439 E48.2975
G1 X91.854 Y104.891 E48.36559
G1 X92.212 Y103.752 E48.50886
G1 X92.412 Y103.202 E48.57909
G1 X92.87 Y102.098 E48.72252
G1 X93.113 Y101.576 E48.79161
G1 X93.665 Y100.517 E48.93492
G1 X93.95 Y100.025 E49.00315
G1 X94.592 Y99.016 E49.14666
G1 X94.923 Y98.542 E49.21604
G1 X95.651 Y97.593 E49.35956
G1 X96.021 Y97.152 E49.42864
G1 X96.829 Y96.27 E49.57218
G1 X97.238 Y95.861 E49.64159
G1 X98.12 Y95.053 E49.78513
G1 X98.562 Y94.683 E49.8543
G1 X99.51 Y93.956 E49.99766
G1 X99.979 Y93.627 E50.06641
G1 X100.988 Y92.984 E50.20998
G1 X101.487 Y92.696 E50.27912
G1 X102.549 Y92.143 E50.4228
G1 X103.068 Y91.901 E50.49152
G1 X104.172 Y91.443 E50.63495
G1 X104.72 Y91.243 E50.70495
G1 X105.858 Y90.885 E50.84811
G1 X106.408 Y90.738 E50.91643
G1 X107.579 Y90.478 E51.06037
G1 X108.144 Y90.378 E51.12922
G1 X109.33 Y90.221 E51.27278
G1 X109.909 Y90.17 E51.34253
G1 X111.102 Y90.118 E51.48583
G1 X111.676 Y90.118 E51.55471
G1 X112.869 Y90.17 E51.698
G1 X113.448 Y90.221 E51.76775
G1 X114.634 Y90.378 E51.91131
G1 X115.199 Y90.478 E51.98017
G1 X116.37 Y90.738 E52.12411
G1 X116.918 Y90.885 E52.1922
G1 X118.057 Y91.243 E52.33547
G1 X118.607 Y91.443 E52.4057
G1 X119.711 Y91.901 E52.54912
G1 X120.23 Y92.143 E52.61784
G1 X121.29 Y92.695 E52.76126
G1 X121.79 Y92.984 E52.83056
G1 X122.8 Y93.628 E52.9743
G1 X123.268 Y93.955 E53.04281
G1 X124.215 Y94.681 E53.186
G1 X124.654 Y95.05 E53.25482
G1 X125.536 Y95.857 E53.39828
G1 X125.95 Y96.27 E53.46845
G1 X126.758 Y97.153 E53.61208
G1 X127.126 Y97.593 E53.68091
G1 X127.853 Y98.541 E53.82427
G1 X128.179 Y99.006 E53.89242
G1 X128.823 Y100.015 E54.03606
G1 X129.115 Y100.52 E54.10606
G1 X129.667 Y101.581 E54.24958
G1 X129.907 Y102.096 E54.31776
G1 X130.365 Y103.199 E54.46108
G1 X130.567 Y103.753 E54.53184
G1 X130.925 Y104.893 E54.67523
G1 X131.069 Y105.432 E54.74217
G1 X131.33 Y106.601 E54.88591
G1 X131.433 Y107.178 E54.95624
G1 X131.589 Y108.363 E55.09967
G1 X131.639 Y108.937 E55.16881
G1 X131.691 Y110.131 E55.31223
