;FLAVOR:UltiGCode
;TIME:1747
;MATERIAL:3627
;MATERIAL2:0
;NOZZLE_DIAMETER:0.4
;MINX:79.92
;MINY:80.53
;MINZ:0.3
;MAXX:143.081
;MAXY:142.474
;MAXZ:5.7
;Generated with Cura_SteamEngine 5.0.0
M82 ;absolute extrusion mode
G0 F3000 Y50 ;avoid prime blob
G92 E0
G92 E0
G10
;LAYER_COUNT:37
;LAYER:0
M107
G0 F3600 X89.188 Y89.77 Z0.3
G0 X85.226 Y94.595
;TYPE:SKIRT
G11
G1 F1800 X85.613 Y94.027 E0.08248
G1 X86.858 Y92.365 E0.33167
G1 X87.302 Y91.824 E0.41565
G1 X88.726 Y90.241 E0.67116
G1 X89.188 Y89.77 E0.75033
G1 X90.663 Y88.386 E0.99305
G1 X91.176 Y87.945 E1.07423
G1 X92.805 Y86.663 E1.32299
G1 X93.374 Y86.255 E1.407
G1 X95.161 Y85.092 E1.66286
G1 X95.751 Y84.743 E1.74512
G1 X97.583 Y83.768 E1.99415
G1 X98.19 Y83.478 E2.07488
G1 X100.1 Y82.664 E2.32403
G1 X100.744 Y82.423 E2.40654
G1 X102.717 Y81.781 E2.65552
G1 X103.369 Y81.6 E2.73672
G1 X105.391 Y81.131 E2.9858
G1 X106.06 Y81.006 E3.06747
G1 X108.117 Y80.715 E3.31677
G1 X108.778 Y80.65 E3.39647
G1 X110.795 Y80.538 E3.63888
G1 X111.475 Y80.53 E3.72049
G1 X113.548 Y80.596 E3.96937
G1 X114.245 Y80.649 E4.05326
G1 X116.359 Y80.907 E4.30882
G1 X117.029 Y81.019 E4.39033
G1 X119.061 Y81.449 E4.63957
G1 X119.718 Y81.618 E4.72098
G1 X121.702 Y82.222 E4.96985
G1 X122.353 Y82.452 E5.0527
G1 X124.278 Y83.23 E5.30185
G1 X124.888 Y83.508 E5.3823
G1 X126.738 Y84.448 E5.63131
G1 X127.331 Y84.783 E5.71304
G1 X129.094 Y85.882 E5.96234
G1 X129.656 Y86.267 E6.04409
G1 X131.313 Y87.513 E6.29287
G1 X131.829 Y87.937 E6.37301
G1 X133.334 Y89.285 E6.61546
G1 X133.819 Y89.759 E6.69684
G1 X135.24 Y91.274 E6.9461
G1 X135.68 Y91.786 E7.02711
G1 X136.962 Y93.415 E7.27587
G1 X137.361 Y93.971 E7.35799
G1 X138.498 Y95.71 E7.60731
G1 X138.846 Y96.296 E7.6891
G1 X139.826 Y98.126 E7.9382
G1 X140.118 Y98.733 E8.01903
G1 X140.936 Y100.64 E8.26804
G1 X141.179 Y101.283 E8.35052
G1 X141.826 Y103.255 E8.59958
G1 X142.01 Y103.91 E8.68122
G1 X142.483 Y105.931 E8.93029
G1 X142.609 Y106.599 E9.01187
G1 X142.904 Y108.652 E9.26076
G1 X142.97 Y109.314 E9.34059
G1 X143.071 Y111.072 E9.5519
G1 X143.081 Y111.736 E9.63159
G1 X143.032 Y113.495 E9.84275
G1 X142.986 Y114.147 E9.92118
G1 X142.79 Y115.895 E10.13226
G1 X142.691 Y116.54 E10.21056
G1 X142.349 Y118.269 E10.42206
G1 X142.192 Y118.916 E10.50196
G1 X141.705 Y120.605 E10.71289
G1 X141.496 Y121.227 E10.79163
G1 X140.868 Y122.871 E11.00282
G1 X140.609 Y123.473 E11.08146
G1 X139.845 Y125.059 E11.29271
G1 X139.535 Y125.639 E11.37163
G1 X138.642 Y127.152 E11.58245
G1 X138.287 Y127.7 E11.66081
G1 X137.269 Y129.135 E11.87194
G1 X136.862 Y129.66 E11.95165
G1 X135.725 Y131.004 E12.1629
G1 X135.279 Y131.488 E12.24188
G1 X134.032 Y132.732 E12.45325
G1 X133.538 Y133.184 E12.5336
G1 X132.155 Y134.345 E12.75029
G1 X131.646 Y134.738 E12.82745
G1 X130.247 Y135.728 E13.03312
G1 X129.68 Y136.093 E13.11403
G1 X128.123 Y137.004 E13.33051
G1 X127.553 Y137.307 E13.40797
G1 X126.008 Y138.047 E13.61354
G1 X125.41 Y138.303 E13.6916
G1 X123.763 Y138.929 E13.90303
G1 X123.144 Y139.135 E13.98132
G1 X121.454 Y139.62 E14.1923
G1 X120.786 Y139.781 E14.27476
G1 X119.011 Y140.125 E14.49172
G1 X118.383 Y140.22 E14.56794
G1 X116.68 Y140.408 E14.77354
G1 X116.024 Y140.452 E14.85244
G1 X114.268 Y140.497 E15.06323
G1 X113.611 Y140.487 E15.14208
G1 X111.855 Y140.384 E15.35316
G1 X111.19 Y140.316 E15.43338
G1 X109.401 Y140.056 E15.65031
G1 X108.666 Y139.913 E15.74016
G1 X108.276 Y140.325 E15.80824
G1 X107.677 Y140.84 E15.90304
G1 X107.029 Y141.291 E15.99778
G1 X106.338 Y141.675 E16.09264
G1 X105.613 Y141.987 E16.18735
G1 X104.86 Y142.224 E16.28208
G1 X104.086 Y142.383 E16.3769
G1 X103.301 Y142.464 E16.4716
G1 X102.899 Y142.474 E16.51986
G1 X87.824 Y142.474 E18.32886
G1 X87.035 Y142.434 E18.42366
G1 X86.255 Y142.315 E18.51834
G1 X85.49 Y142.117 E18.61317
G1 X84.75 Y141.843 E18.70786
G1 X84.041 Y141.495 E18.80264
G1 X83.37 Y141.077 E18.8975
G1 X82.746 Y140.594 E18.99219
G1 X82.173 Y140.051 E19.08692
G1 X81.658 Y139.452 E19.18172
G1 X81.207 Y138.804 E19.27646
G1 X80.823 Y138.113 E19.37132
G1 X80.511 Y137.388 E19.46603
G1 X80.274 Y136.635 E19.56076
G1 X80.115 Y135.861 E19.65558
G1 X80.034 Y135.076 E19.75028
G1 X80.024 Y134.674 E19.79854
G1 X80.024 Y114.558 E22.21246
G1 X79.928 Y112.834 E22.41966
G1 X79.92 Y112.152 E22.5015
G1 X79.986 Y110.077 E22.75063
G1 X80.037 Y109.396 E22.83258
G1 X80.284 Y107.336 E23.08155
G1 X80.394 Y106.67 E23.16255
G1 X80.819 Y104.636 E23.4119
G1 X80.989 Y103.971 E23.49427
G1 X81.59 Y101.986 E23.74315
G1 X81.814 Y101.347 E23.8244
G1 X82.586 Y99.419 E24.07362
G1 X82.866 Y98.798 E24.15537
G1 X83.802 Y96.947 E24.40427
G1 X84.133 Y96.359 E24.48524
G1 X85.226 Y94.595 E24.73426
G10
G0 F3600 X83.329 Y99.716
G11
G1 F1800 X83.58 Y99.159 E24.80758
G1 X84.516 Y97.308 E25.05648
G1 X84.813 Y96.78 E25.12917
G1 X85.906 Y95.016 E25.3782
G1 X86.254 Y94.506 E25.45229
G1 X87.499 Y92.844 E25.70148
G1 X87.897 Y92.36 E25.77667
G1 X89.321 Y90.777 E26.03218
G1 X89.735 Y90.353 E26.10329
G1 X91.21 Y88.969 E26.34601
G1 X91.671 Y88.573 E26.41894
G1 X93.3 Y87.291 E26.66769
G1 X93.811 Y86.925 E26.74312
G1 X95.598 Y85.762 E26.99897
G1 X96.127 Y85.45 E27.07267
G1 X97.959 Y84.475 E27.32171
G1 X98.504 Y84.214 E27.39422
G1 X100.414 Y83.4 E27.64337
G1 X100.992 Y83.184 E27.71741
G1 X102.965 Y82.542 E27.96639
G1 X103.549 Y82.379 E28.03915
G1 X105.571 Y81.91 E28.28823
G1 X106.172 Y81.798 E28.36159
G1 X108.229 Y81.507 E28.61089
G1 X108.822 Y81.449 E28.68239
G1 X110.839 Y81.337 E28.9248
G1 X111.45 Y81.33 E28.99813
G1 X113.523 Y81.396 E29.24701
G1 X114.148 Y81.444 E29.32223
G1 X116.262 Y81.702 E29.5778
G1 X116.863 Y81.802 E29.65091
G1 X118.895 Y82.232 E29.90015
G1 X119.485 Y82.383 E29.97323
G1 X121.469 Y82.987 E30.2221
G1 X122.053 Y83.194 E30.29645
G1 X123.978 Y83.972 E30.5456
G1 X124.526 Y84.221 E30.61783
G1 X126.376 Y85.161 E30.86685
G1 X126.908 Y85.462 E30.9402
G1 X128.671 Y86.561 E31.1895
G1 X129.175 Y86.906 E31.26279
G1 X130.832 Y88.152 E31.51157
G1 X131.295 Y88.533 E31.58353
G1 X132.8 Y89.881 E31.82598
G1 X133.236 Y90.306 E31.89904
G1 X134.657 Y91.821 E32.1483
G1 X135.052 Y92.281 E32.22106
G1 X136.334 Y93.91 E32.46981
G1 X136.692 Y94.408 E32.54341
G1 X137.829 Y96.147 E32.79274
G1 X138.141 Y96.673 E32.86612
G1 X139.121 Y98.503 E33.11523
G1 X139.383 Y99.049 E33.1879
G1 X140.201 Y100.956 E33.43691
G1 X140.419 Y101.533 E33.51092
G1 X141.066 Y103.505 E33.75998
G1 X141.231 Y104.092 E33.83315
G1 X141.704 Y106.113 E34.08222
G1 X141.817 Y106.712 E34.15537
G1 X142.112 Y108.765 E34.40426
G1 X142.171 Y109.36 E34.47601
G1 X142.272 Y111.118 E34.68732
G1 X142.281 Y111.714 E34.75884
G1 X142.232 Y113.473 E34.97001
G1 X142.191 Y114.058 E35.04038
G1 X141.995 Y115.806 E35.25145
G1 X141.906 Y116.384 E35.32163
G1 X141.564 Y118.113 E35.53313
G1 X141.423 Y118.694 E35.60487
G1 X140.936 Y120.383 E35.81581
G1 X140.749 Y120.942 E35.88654
G1 X140.121 Y122.586 E36.09773
G1 X139.888 Y123.126 E36.1683
G1 X139.124 Y124.712 E36.37955
G1 X138.846 Y125.232 E36.45031
G1 X137.953 Y126.745 E36.66114
G1 X137.634 Y127.237 E36.7315
G1 X136.616 Y128.672 E36.94263
G1 X136.251 Y129.143 E37.01413
G1 X135.114 Y130.487 E37.22539
G1 X134.714 Y130.922 E37.2963
G1 X133.467 Y132.166 E37.50767
G1 X133.024 Y132.571 E37.5797
G1 X131.641 Y133.732 E37.79638
G1 X131.184 Y134.085 E37.86568
G1 X129.785 Y135.075 E38.07134
G1 X129.276 Y135.403 E38.144
G1 X127.719 Y136.314 E38.36048
G1 X127.208 Y136.585 E38.42988
G1 X125.663 Y137.325 E38.63545
G1 X125.126 Y137.555 E38.70556
G1 X123.479 Y138.181 E38.91699
G1 X122.923 Y138.366 E38.98731
G1 X121.233 Y138.851 E39.19829
G1 X120.634 Y138.995 E39.27222
G1 X118.859 Y139.339 E39.48918
G1 X118.295 Y139.425 E39.55765
G1 X116.592 Y139.613 E39.76325
G1 X116.003 Y139.653 E39.83409
G1 X114.247 Y139.698 E40.04488
G1 X113.658 Y139.688 E40.11557
G1 X111.902 Y139.585 E40.32665
G1 X111.305 Y139.524 E40.39866
G1 X109.516 Y139.264 E40.6156
G1 X108.938 Y139.155 E40.68618
G1 X108.373 Y139.024 E40.75578
G1 X108.028 Y139.437 E40.82036
G1 X107.491 Y139.958 E40.91014
G1 X106.901 Y140.417 E40.99984
G1 X106.265 Y140.812 E41.08969
G1 X105.591 Y141.136 E41.17943
G1 X104.886 Y141.386 E41.26919
G1 X104.158 Y141.56 E41.35901
G1 X103.416 Y141.655 E41.44878
G1 X102.899 Y141.674 E41.51086
G1 X87.824 Y141.674 E43.31986
G1 X87.077 Y141.634 E43.40963
G1 X86.339 Y141.515 E43.49933
G1 X85.617 Y141.317 E43.58917
G1 X84.921 Y141.044 E43.67888
G1 X84.258 Y140.697 E43.76868
G1 X83.635 Y140.282 E43.85851
G1 X83.061 Y139.803 E43.94822
G1 X82.54 Y139.266 E44.03801
G1 X82.081 Y138.676 E44.12771
G1 X81.686 Y138.04 E44.21755
G1 X81.362 Y137.366 E44.30729
G1 X81.112 Y136.661 E44.39705
G1 X80.938 Y135.933 E44.48687
G1 X80.843 Y135.191 E44.57664
G1 X80.824 Y134.674 E44.63872
G1 X80.824 Y114.531 E47.05588
G1 X80.727 Y112.789 E47.26525
G1 X80.72 Y112.177 E47.33869
G1 X80.786 Y110.102 E47.58782
G1 X80.832 Y109.492 E47.66122
G1 X81.079 Y107.432 E47.91019
G1 X81.177 Y106.833 E47.98303
G1 X81.602 Y104.799 E48.23238
G1 X81.754 Y104.203 E48.30619
G1 X82.355 Y102.218 E48.55507
G1 X82.557 Y101.644 E48.62809
G1 X83.329 Y99.716 E48.87731
G10
G0 F3600 X82.385 Y104.963
G11
G1 F1800 X82.52 Y104.434 E48.94282
G1 X83.121 Y102.449 E49.1917
G1 X83.299 Y101.941 E49.25629
G1 X84.071 Y100.013 E49.50551
G1 X84.294 Y99.52 E49.57044
G1 X85.23 Y97.669 E49.81935
G1 X85.493 Y97.201 E49.88377
G1 X86.586 Y95.437 E50.13279
G1 X86.894 Y94.986 E50.19832
G1 X88.139 Y93.324 E50.44752
G1 X88.492 Y92.895 E50.51418
G1 X89.916 Y91.312 E50.76969
G1 X90.283 Y90.937 E50.83266
G1 X91.758 Y89.553 E51.07537
G1 X92.166 Y89.202 E51.13996
G1 X93.795 Y87.92 E51.38871
G1 X94.247 Y87.596 E51.45545
G1 X96.034 Y86.433 E51.7113
G1 X96.503 Y86.156 E51.77667
G1 X98.335 Y85.181 E52.0257
G1 X98.817 Y84.95 E52.08984
G1 X100.727 Y84.136 E52.33899
G1 X101.24 Y83.944 E52.40472
G1 X103.213 Y83.302 E52.6537
G1 X103.73 Y83.158 E52.7181
G1 X105.752 Y82.689 E52.96718
G1 X106.285 Y82.59 E53.03224
G1 X108.342 Y82.299 E53.28153
G1 X108.866 Y82.248 E53.34471
G1 X110.883 Y82.136 E53.58712
G1 X111.424 Y82.129 E53.65205
G1 X113.497 Y82.195 E53.90093
G1 X114.051 Y82.238 E53.96761
G1 X116.165 Y82.496 E54.22318
G1 X116.698 Y82.584 E54.288
G1 X118.73 Y83.014 E54.53724
G1 X119.252 Y83.149 E54.60194
G1 X121.236 Y83.753 E54.85081
G1 X121.753 Y83.936 E54.91662
G1 X123.678 Y84.714 E55.16578
G1 X124.164 Y84.935 E55.22984
G1 X126.014 Y85.875 E55.47886
G1 X126.485 Y86.141 E55.54377
G1 X128.248 Y87.24 E55.79307
G1 X128.694 Y87.546 E55.85797
G1 X130.351 Y88.792 E56.10676
G1 X130.762 Y89.129 E56.17054
G1 X132.267 Y90.477 E56.41299
G1 X132.652 Y90.853 E56.47756
G1 X134.073 Y92.368 E56.72682
G1 X134.423 Y92.776 E56.79133
G1 X135.705 Y94.405 E57.04008
G1 X136.022 Y94.846 E57.10526
G1 X137.159 Y96.585 E57.35458
G1 X137.436 Y97.051 E57.41963
G1 X138.416 Y98.881 E57.66874
G1 X138.648 Y99.364 E57.73304
G1 X139.466 Y101.271 E57.98204
G1 X139.659 Y101.782 E58.04759
G1 X140.306 Y103.754 E58.29664
G1 X140.452 Y104.274 E58.36146
G1 X140.925 Y106.295 E58.61053
G1 X141.025 Y106.826 E58.67537
G1 X141.32 Y108.879 E58.92426
G1 X141.373 Y109.405 E58.9877
G1 X141.474 Y111.163 E59.19901
G1 X141.482 Y111.692 E59.2625
G1 X141.433 Y113.451 E59.47366
G1 X141.396 Y113.969 E59.53598
G1 X141.2 Y115.717 E59.74705
G1 X141.121 Y116.229 E59.80922
G1 X140.779 Y117.958 E60.02072
G1 X140.654 Y118.473 E60.08431
G1 X140.167 Y120.162 E60.29525
G1 X140.002 Y120.656 E60.35775
G1 X139.374 Y122.3 E60.56893
G1 X139.168 Y122.779 E60.6315
G1 X138.404 Y124.365 E60.84275
G1 X138.157 Y124.825 E60.90541
G1 X137.264 Y126.338 E61.11623
G1 X136.982 Y126.774 E61.17854
G1 X135.964 Y128.209 E61.38967
G1 X135.64 Y128.626 E61.45304
G1 X134.503 Y129.97 E61.66429
G1 X134.149 Y130.355 E61.72705
G1 X132.902 Y131.599 E61.93842
G1 X132.509 Y131.959 E62.00238
G1 X131.126 Y133.12 E62.21906
G1 X130.721 Y133.432 E62.28041
G1 X129.322 Y134.422 E62.48608
G1 X128.872 Y134.712 E62.55032
G1 X127.315 Y135.623 E62.76679
G1 X126.862 Y135.864 E62.82836
G1 X125.317 Y136.604 E63.03393
G1 X124.842 Y136.807 E63.09592
G1 X123.195 Y137.433 E63.30735
G1 X122.702 Y137.597 E63.3697
G1 X121.012 Y138.082 E63.58069
G1 X120.482 Y138.21 E63.64612
G1 X118.707 Y138.554 E63.86308
G1 X118.207 Y138.63 E63.92377
G1 X116.504 Y138.818 E64.12937
G1 X115.983 Y138.853 E64.19203
G1 X114.227 Y138.898 E64.40282
G1 X113.705 Y138.889 E64.46547
G1 X111.949 Y138.786 E64.67655
G1 X111.42 Y138.733 E64.74035
G1 X109.631 Y138.473 E64.95728
G1 X109.119 Y138.376 E65.01982
G1 X108.041 Y138.125 E65.15264
G1 X107.714 Y138.58 E65.21988
G1 X107.24 Y139.101 E65.3044
G1 X106.71 Y139.565 E65.38893
G1 X106.131 Y139.965 E65.47338
G1 X105.51 Y140.297 E65.55788
G1 X104.856 Y140.557 E65.64233
G1 X104.176 Y140.741 E65.72687
G1 X103.48 Y140.847 E65.81135
G1 X102.899 Y140.874 E65.88114
G1 X87.824 Y140.874 E67.69014
G1 X87.121 Y140.834 E67.77464
G1 X86.427 Y140.715 E67.85914
G1 X85.752 Y140.517 E67.94355
G1 X85.103 Y140.245 E68.02799
G1 X84.489 Y139.9 E68.11251
G1 X83.918 Y139.489 E68.19693
G1 X83.397 Y139.015 E68.28145
G1 X82.933 Y138.485 E68.36598
G1 X82.533 Y137.906 E68.45043
G1 X82.201 Y137.285 E68.53493
G1 X81.941 Y136.631 E68.61939
G1 X81.757 Y135.951 E68.70392
G1 X81.651 Y135.255 E68.7884
G1 X81.624 Y134.674 E68.8582
G1 X81.624 Y114.505 E71.27848
G1 X81.526 Y112.745 E71.49001
G1 X81.519 Y112.203 E71.55505
G1 X81.585 Y110.128 E71.80418
G1 X81.626 Y109.587 E71.86928
G1 X81.873 Y107.527 E72.11826
G1 X81.96 Y106.997 E72.18271
G1 X82.385 Y104.963 E72.43206
G10
G0 F3600 X82.385 Y110.153
G11
G1 F1800 X82.42 Y109.682 E72.48873
G1 X82.667 Y107.622 E72.7377
G1 X82.743 Y107.161 E72.79377
G1 X83.168 Y105.127 E73.04312
G1 X83.286 Y104.666 E73.10023
G1 X83.887 Y102.681 E73.3491
G1 X84.042 Y102.239 E73.40531
G1 X84.814 Y100.311 E73.65453
G1 X85.008 Y99.881 E73.71114
G1 X85.944 Y98.03 E73.96004
G1 X86.173 Y97.623 E74.01608
G1 X87.266 Y95.859 E74.2651
G1 X87.534 Y95.465 E74.32228
G1 X88.779 Y93.803 E74.57147
G1 X89.086 Y93.43 E74.62945
G1 X90.51 Y91.847 E74.88495
G1 X90.83 Y91.52 E74.93986
G1 X92.305 Y90.136 E75.18257
G1 X92.66 Y89.831 E75.23874
G1 X94.289 Y88.549 E75.48749
G1 X94.683 Y88.266 E75.54571
G1 X96.47 Y87.103 E75.80156
G1 X96.879 Y86.862 E75.85853
G1 X98.711 Y85.887 E76.10756
G1 X99.131 Y85.686 E76.16344
G1 X101.041 Y84.872 E76.41258
G1 X101.487 Y84.705 E76.46973
G1 X103.46 Y84.063 E76.71871
G1 X103.911 Y83.938 E76.77487
G1 X105.933 Y83.469 E77.02395
G1 X106.397 Y83.382 E77.0806
G1 X108.454 Y83.091 E77.3299
G1 X108.911 Y83.046 E77.38501
G1 X110.928 Y82.934 E77.62742
G1 X111.399 Y82.929 E77.68394
G1 X113.472 Y82.995 E77.93283
G1 X113.954 Y83.032 E77.99084
G1 X116.068 Y83.29 E78.2464
G1 X116.532 Y83.367 E78.30284
G1 X118.564 Y83.797 E78.55208
G1 X119.019 Y83.914 E78.60846
G1 X121.003 Y84.518 E78.85733
G1 X121.453 Y84.677 E78.9146
G1 X123.378 Y85.455 E79.16375
G1 X123.801 Y85.648 E79.21954
G1 X125.651 Y86.588 E79.46856
G1 X126.062 Y86.819 E79.52513
G1 X127.825 Y87.918 E79.77443
G1 X128.213 Y88.185 E79.83095
G1 X129.87 Y89.431 E80.07974
G1 X130.228 Y89.725 E80.13533
G1 X131.733 Y91.073 E80.37778
G1 X132.069 Y91.401 E80.43412
G1 X133.49 Y92.916 E80.68338
G1 X133.794 Y93.27 E80.73937
G1 X135.076 Y94.899 E80.98813
G1 X135.353 Y95.284 E81.04504
G1 X136.49 Y97.023 E81.29437
G1 X136.73 Y97.429 E81.35097
G1 X137.71 Y99.259 E81.60007
G1 X137.913 Y99.679 E81.65605
G1 X138.731 Y101.586 E81.90505
G1 X138.899 Y102.032 E81.96225
G1 X139.546 Y104.004 E82.2113
G1 X139.673 Y104.456 E82.26764
G1 X140.146 Y106.477 E82.51671
G1 X140.233 Y106.94 E82.57324
G1 X140.528 Y108.993 E82.82213
G1 X140.574 Y109.451 E82.87737
G1 X140.675 Y111.209 E83.08868
G1 X140.682 Y111.669 E83.14388
G1 X140.633 Y113.428 E83.35505
G1 X140.601 Y113.88 E83.40942
G1 X140.405 Y115.628 E83.6205
